;START_OF_HEADER
;HEADER_VERSION:0.1
;FLAVOR:Griffin
;GENERATOR.NAME:Cura_SteamEngine
;GENERATOR.VERSION:5.6.0
;GENERATOR.BUILD_DATE:2023-11-28
;TARGET_MACHINE.NAME:Ultimaker 3 Extended
;EXTRUDER_TRAIN.0.INITIAL_TEMPERATURE:200
;EXTRUDER_TRAIN.0.MATERIAL.VOLUME_USED:7154
;EXTRUDER_TRAIN.0.MATERIAL.GUID:506c9f0d-e3aa-4bd4-b2d2-23e2425b1aa9
;EXTRUDER_TRAIN.0.NOZZLE.DIAMETER:0.4
;EXTRUDER_TRAIN.0.NOZZLE.NAME:AA 0.4
;BUILD_PLATE.INITIAL_TEMPERATURE:60
;PRINT.TIME:4327
;PRINT.GROUPS:1
;PRINT.SIZE.MIN.X:9
;PRINT.SIZE.MIN.Y:6
;PRINT.SIZE.MIN.Z:0.2
;PRINT.SIZE.MAX.X:140.246
;PRINT.SIZE.MAX.Y:131.246
;PRINT.SIZE.MAX.Z:16.25
;SLICE_UUID:cbc1ba2e-8fc6-43d6-bc4b-2299d842fb89
;END_OF_HEADER
;Generated with Cura_SteamEngine 5.6.0
T0
M82 ;absolute extrusion mode

G92 E0
M190 S60
M109 S200
G0 F15000 X9 Y6 Z2
G280
G1 F1500 E-6.5
;LAYER_COUNT:108
;LAYER:0
M106 S255
M204 S1000
M205 X20 Y20
G1 F600 Z2.2
G0 F15000 X99.726 Y90.702 Z2.2
;TYPE:SKIRT
G1 F600 Z0.2
G1 F1500 E0
G1 F1350 X103.284 Y87.768 E0.05783
G1 X107.458 Y85.545 E0.11714
G1 X111.868 Y84.212 E0.17491
G1 X116.52 Y83.754 E0.23353
G1 X121.143 Y84.212 E0.29179
G1 X125.611 Y85.572 E0.35036
G1 X129.698 Y87.764 E0.40852
G1 X133.298 Y90.726 E0.46698
G1 X136.232 Y94.284 E0.52481
G1 X138.455 Y98.458 E0.58411
G1 X139.788 Y102.865 E0.64185
G1 X140.246 Y107.517 E0.70047
G1 X139.788 Y112.143 E0.75877
G1 X138.427 Y116.615 E0.81739
G1 X136.24 Y120.693 E0.87542
G1 X133.274 Y124.298 E0.93396
G1 X129.716 Y127.232 E0.99179
G1 X125.542 Y129.455 E1.0511
G1 X121.132 Y130.788 E1.10887
G1 X116.48 Y131.246 E1.16749
G1 X111.857 Y130.788 E1.22575
G1 X107.389 Y129.428 E1.28432
G1 X103.302 Y127.236 E1.34248
G1 X99.698 Y124.27 E1.40101
G1 X96.767 Y120.715 E1.45879
G1 X94.545 Y116.542 E1.51808
G1 X93.212 Y112.134 E1.57583
G1 X92.754 Y107.483 E1.63443
G1 X93.212 Y102.856 E1.69274
G1 X94.572 Y98.389 E1.7513
G1 X96.764 Y94.302 E1.80946
G1 X99.726 Y90.702 E1.86792
G0 F15000 X100.01 Y90.986
G1 F1350 X103.508 Y88.102 E1.92477
G1 X107.61 Y85.917 E1.98305
G1 X111.948 Y84.606 E2.03988
G1 X116.52 Y84.156 E2.0975
G1 X121.063 Y84.606 E2.15475
G1 X125.456 Y85.943 E2.21233
G1 X129.476 Y88.099 E2.26954
G1 X133.014 Y91.01 E2.32699
G1 X135.898 Y94.508 E2.38384
G1 X138.083 Y98.61 E2.44213
G1 X139.394 Y102.945 E2.49892
G1 X139.844 Y107.517 E2.55653
G1 X139.394 Y112.063 E2.61382
G1 X138.055 Y116.464 E2.67151
G1 X135.908 Y120.467 E2.72847
G1 X132.99 Y124.014 E2.78607
G1 X129.492 Y126.898 E2.84292
G1 X125.39 Y129.083 E2.90121
G1 X121.052 Y130.394 E2.95804
G1 X116.48 Y130.844 E3.01565
G1 X111.937 Y130.394 E3.0729
G1 X107.544 Y129.057 E3.13048
G1 X103.524 Y126.901 E3.18769
G1 X99.982 Y123.986 E3.24521
G1 X97.101 Y120.491 E3.30201
G1 X94.917 Y116.39 E3.36028
G1 X93.606 Y112.054 E3.41709
G1 X93.156 Y107.483 E3.47468
G1 X93.606 Y102.936 E3.53198
G1 X94.943 Y98.544 E3.58956
G1 X97.099 Y94.524 E3.64676
G1 X100.01 Y90.986 E3.70422
G0 F15000 X100.294 Y91.27
G1 F1350 X103.732 Y88.436 E3.76009
G1 X107.762 Y86.289 E3.81735
G1 X112.028 Y85 E3.87324
G1 X116.52 Y84.558 E3.92984
G1 X120.983 Y85 E3.98608
G1 X125.301 Y86.314 E4.04268
G1 X129.254 Y88.434 E4.09894
G1 X132.73 Y91.294 E4.15538
G1 X135.564 Y94.732 E4.21126
G1 X137.711 Y98.762 E4.26852
G1 X139 Y103.025 E4.32437
G1 X139.442 Y107.517 E4.38097
G1 X139 Y111.983 E4.43725
G1 X137.684 Y116.309 E4.49396
G1 X135.573 Y120.245 E4.54997
G1 X132.706 Y123.73 E4.60656
G1 X129.268 Y126.564 E4.66243
G1 X125.238 Y128.711 E4.71969
G1 X120.972 Y130 E4.77558
G1 X116.48 Y130.442 E4.83218
G1 X112.017 Y130 E4.88843
G1 X107.699 Y128.686 E4.94503
G1 X103.746 Y126.566 E5.00128
G1 X100.266 Y123.702 E5.0578
G1 X97.435 Y120.267 E5.11362
G1 X95.289 Y116.238 E5.17086
G1 X94 Y111.974 E5.22672
G1 X93.558 Y107.483 E5.28332
G1 X94 Y103.016 E5.33961
G1 X95.314 Y98.699 E5.3962
G1 X97.434 Y94.746 E5.45245
G1 X100.294 Y91.27 E5.5089
G0 F15000 X100.578 Y91.554
G1 F1350 X103.956 Y88.77 E5.56379
G1 X107.914 Y86.661 E5.62003
G1 X112.108 Y85.394 E5.67497
G1 X116.52 Y84.96 E5.73057
G1 X120.903 Y85.394 E5.7858
G1 X125.146 Y86.685 E5.84142
G1 X129.032 Y88.769 E5.89672
G1 X132.446 Y91.578 E5.95216
G1 X135.23 Y94.956 E6.00705
G1 X137.339 Y98.914 E6.06329
G1 X138.606 Y103.105 E6.1182
G1 X139.04 Y107.517 E6.17379
G1 X138.606 Y111.903 E6.22906
G1 X137.313 Y116.154 E6.28479
G1 X135.238 Y120.023 E6.33984
G1 X132.422 Y123.446 E6.39543
G1 X129.044 Y126.23 E6.45032
G1 X125.086 Y128.339 E6.50656
G1 X120.892 Y129.606 E6.5615
G1 X116.48 Y130.04 E6.6171
G1 X112.097 Y129.606 E6.67233
G1 X107.854 Y128.315 E6.72795
G1 X103.968 Y126.231 E6.78325
G1 X100.55 Y123.418 E6.83876
G1 X97.769 Y120.043 E6.8936
G1 X95.661 Y116.086 E6.94982
G1 X94.394 Y111.894 E7.00474
G1 X93.96 Y107.483 E7.06032
G1 X94.394 Y103.096 E7.11561
G1 X95.685 Y98.854 E7.17121
G1 X97.769 Y94.968 E7.22651
G1 X100.578 Y91.554 E7.28195
G0 F15000 X100.862 Y91.838
G1 F1350 X104.18 Y89.104 E7.33587
G1 X108.066 Y87.033 E7.39109
G1 X112.188 Y85.788 E7.44509
G1 X116.52 Y85.362 E7.49967
G1 X120.823 Y85.788 E7.5539
G1 X124.995 Y87.057 E7.60858
G1 X128.806 Y89.101 E7.66281
G1 X132.162 Y91.862 E7.71731
G1 X134.896 Y95.18 E7.77123
G1 X136.967 Y99.066 E7.82645
G1 X138.212 Y103.185 E7.88041
G1 X138.638 Y107.517 E7.935
G1 X138.212 Y111.823 E7.98926
G1 X136.942 Y115.999 E8.04399
G1 X134.903 Y119.801 E8.0981
G1 X132.138 Y123.162 E8.15267
G1 X128.82 Y125.896 E8.20659
G1 X124.934 Y127.967 E8.26181
G1 X120.812 Y129.212 E8.31581
G1 X116.48 Y129.638 E8.37039
G1 X112.177 Y129.212 E8.42462
G1 X108.005 Y127.943 E8.4793
G1 X104.194 Y125.899 E8.53354
G1 X100.834 Y123.134 E8.5881
G1 X98.103 Y119.819 E8.64197
G1 X96.033 Y115.934 E8.69717
G1 X94.788 Y111.814 E8.75114
G1 X94.362 Y107.483 E8.80572
G1 X94.788 Y103.176 E8.85999
G1 X96.057 Y99.005 E8.91467
G1 X98.101 Y95.194 E8.9689
G1 X100.862 Y91.838 E9.0234
G0 F15000 X101.146 Y92.122
G1 F1350 X104.404 Y89.438 E9.07633
G1 X108.218 Y87.405 E9.13053
G1 X112.268 Y86.182 E9.18358
G1 X116.52 Y85.764 E9.23716
G1 X120.743 Y86.182 E9.29038
G1 X124.84 Y87.428 E9.34408
G1 X128.584 Y89.436 E9.39736
G1 X131.878 Y92.146 E9.45085
G1 X134.562 Y95.404 E9.50378
G1 X136.595 Y99.218 E9.55798
G1 X137.818 Y103.265 E9.611
G1 X138.236 Y107.517 E9.66458
G1 X137.818 Y111.743 E9.71783
G1 X136.57 Y115.848 E9.77164
G1 X134.571 Y119.575 E9.82468
G1 X131.854 Y122.878 E9.87831
G1 X128.596 Y125.562 E9.93124
G1 X124.782 Y127.595 E9.98544
G1 X120.732 Y128.818 E10.0385
G1 X116.48 Y129.236 E10.09208
G1 X112.257 Y128.818 E10.14529
G1 X108.16 Y127.572 E10.19899
G1 X104.416 Y125.564 E10.25227
G1 X101.118 Y122.85 E10.30583
G1 X98.437 Y119.595 E10.35872
G1 X96.405 Y115.782 E10.4129
G1 X95.182 Y111.734 E10.46593
G1 X94.764 Y107.483 E10.51949
G1 X95.182 Y103.256 E10.57276
G1 X96.428 Y99.16 E10.62645
G1 X98.436 Y95.416 E10.67973
G1 X101.146 Y92.122 E10.73322
G0 F15000 X101.43 Y92.406
G1 F1350 X104.628 Y89.772 E10.78517
G1 X108.37 Y87.777 E10.83835
G1 X112.348 Y86.576 E10.89046
G1 X116.52 Y86.166 E10.94303
G1 X120.663 Y86.576 E10.99524
G1 X124.685 Y87.799 E11.04796
G1 X128.362 Y89.771 E11.10028
G1 X131.594 Y92.43 E11.15277
G1 X134.228 Y95.628 E11.20472
G1 X136.223 Y99.37 E11.2579
G1 X137.424 Y103.345 E11.30998
G1 X137.834 Y107.517 E11.36255
G1 X137.424 Y111.663 E11.41479
G1 X136.199 Y115.693 E11.46761
G1 X134.236 Y119.353 E11.5197
G1 X131.57 Y122.594 E11.57232
G1 X128.372 Y125.228 E11.62428
G1 X124.63 Y127.223 E11.67746
G1 X120.652 Y128.424 E11.72957
G1 X116.48 Y128.834 E11.78214
G1 X112.337 Y128.424 E11.83435
G1 X108.315 Y127.201 E11.88706
G1 X104.638 Y125.229 E11.93939
G1 X101.402 Y122.566 E11.99194
G1 X98.771 Y119.371 E12.04384
G1 X96.777 Y115.63 E12.09701
G1 X95.576 Y111.654 E12.14909
G1 X95.166 Y107.483 E12.20165
G1 X95.576 Y103.336 E12.25391
G1 X96.799 Y99.315 E12.30661
G1 X98.771 Y95.638 E12.35894
G1 X101.43 Y92.406 E12.41142
G0 F15000 X101.714 Y92.69
G1 F1350 X104.852 Y90.106 E12.4624
G1 X108.522 Y88.149 E12.51456
G1 X112.427 Y86.97 E12.56571
G1 X116.52 Y86.568 E12.61728
G1 X120.583 Y86.97 E12.66848
G1 X124.53 Y88.17 E12.72022
G1 X128.14 Y90.106 E12.77159
G1 X131.31 Y92.714 E12.82307
G1 X133.894 Y95.852 E12.87404
G1 X135.851 Y99.522 E12.9262
G1 X137.03 Y103.425 E12.97733
G1 X137.432 Y107.517 E13.02889
G1 X137.03 Y111.583 E13.08013
G1 X135.828 Y115.538 E13.13197
G1 X133.901 Y119.131 E13.18309
G1 X131.286 Y122.31 E13.23472
G1 X128.148 Y124.894 E13.28569
G1 X124.478 Y126.851 E13.33785
G1 X120.573 Y128.03 E13.389
G1 X116.48 Y128.432 E13.44058
G1 X112.417 Y128.03 E13.49178
G1 X108.47 Y126.83 E13.54351
G1 X104.86 Y124.894 E13.59488
G1 X101.686 Y122.282 E13.64643
G1 X99.105 Y119.147 E13.69735
G1 X97.149 Y115.478 E13.74949
G1 X95.97 Y111.574 E13.80064
G1 X95.568 Y107.483 E13.85219
G1 X95.97 Y103.416 E13.90344
G1 X97.17 Y99.47 E13.95516
G1 X99.106 Y95.86 E14.00653
G1 X101.714 Y92.69 E14.058
G0 F15000 X101.998 Y92.974
G1 F1350 X105.076 Y90.44 E14.108
G1 X108.674 Y88.521 E14.15914
G1 X112.506 Y87.364 E14.20934
G1 X116.52 Y86.97 E14.25991
G1 X120.503 Y87.364 E14.31011
G1 X124.379 Y88.542 E14.36091
G1 X127.914 Y90.438 E14.41121
G1 X131.026 Y92.998 E14.46175
G1 X133.56 Y96.076 E14.51174
G1 X135.479 Y99.674 E14.56288
G1 X136.636 Y103.505 E14.61306
G1 X137.03 Y107.517 E14.66362
G1 X136.636 Y111.503 E14.71385
G1 X135.457 Y115.383 E14.7647
G1 X133.566 Y118.909 E14.81488
G1 X131.002 Y122.026 E14.86549
G1 X127.924 Y124.56 E14.91549
G1 X124.326 Y126.479 E14.96662
G1 X120.494 Y127.636 E15.01682
G1 X116.48 Y128.03 E15.0674
G1 X112.497 Y127.636 E15.11759
G1 X108.621 Y126.458 E15.16839
G1 X105.086 Y124.562 E15.2187
G1 X101.97 Y121.998 E15.2693
G1 X99.439 Y118.923 E15.31925
G1 X97.521 Y115.326 E15.37037
G1 X96.364 Y111.494 E15.42056
G1 X95.97 Y107.483 E15.4711
G1 X96.364 Y103.496 E15.52135
G1 X97.542 Y99.621 E15.57214
G1 X99.438 Y96.086 E15.62244
G1 X101.998 Y92.974 E15.67297
G0 F15000 X102.282 Y93.258
G1 F1350 X105.3 Y90.774 E15.72199
G1 X108.826 Y88.893 E15.77211
G1 X112.585 Y87.758 E15.82135
G1 X116.52 Y87.372 E15.87093
G1 X120.423 Y87.758 E15.92012
G1 X124.224 Y88.913 E15.96993
G1 X127.692 Y90.773 E16.01928
G1 X130.742 Y93.282 E16.06881
G1 X133.226 Y96.3 E16.11783
G1 X135.107 Y99.826 E16.16794
G1 X136.242 Y103.584 E16.21717
G1 X136.628 Y107.517 E16.26673
G1 X136.242 Y111.423 E16.31595
G1 X135.086 Y115.228 E16.36582
G1 X133.231 Y118.687 E16.41504
G1 X130.718 Y121.742 E16.46465
G1 X127.7 Y124.226 E16.51367
G1 X124.174 Y126.107 E16.56378
G1 X120.415 Y127.242 E16.61302
G1 X116.48 Y127.628 E16.66261
G1 X112.577 Y127.242 E16.71179
G1 X108.776 Y126.087 E16.76161
G1 X105.308 Y124.227 E16.81096
G1 X102.254 Y121.714 E16.86056
G1 X99.773 Y118.699 E16.90952
G1 X97.893 Y115.174 E16.95962
G1 X96.758 Y111.415 E17.00886
G1 X96.372 Y107.483 E17.05841
G1 X96.758 Y103.576 E17.10764
G1 X97.913 Y99.776 E17.15745
G1 X99.773 Y96.308 E17.2068
G1 X102.282 Y93.258 E17.25632
G0 F15000 X102.566 Y93.542
G1 F1350 X105.524 Y91.108 E17.30436
G1 X108.978 Y89.265 E17.35346
G1 X112.664 Y88.152 E17.40174
G1 X116.52 Y87.774 E17.45033
G1 X120.343 Y88.152 E17.49851
G1 X124.069 Y89.284 E17.54734
G1 X127.47 Y91.108 E17.59574
G1 X130.458 Y93.566 E17.64426
G1 X132.892 Y96.524 E17.69229
G1 X134.735 Y99.978 E17.74139
G1 X135.848 Y103.663 E17.78966
G1 X136.226 Y107.517 E17.83822
G1 X135.848 Y111.343 E17.88644
G1 X134.715 Y115.073 E17.93532
G1 X132.896 Y118.465 E17.98359
G1 X130.434 Y121.458 E18.03219
G1 X127.476 Y123.892 E18.08023
G1 X124.022 Y125.735 E18.12932
G1 X120.336 Y126.848 E18.17761
G1 X116.48 Y127.226 E18.2262
G1 X112.657 Y126.848 E18.27437
G1 X108.931 Y125.716 E18.32321
G1 X105.53 Y123.892 E18.3716
G1 X102.538 Y121.43 E18.42019
G1 X100.107 Y118.475 E18.46818
G1 X98.265 Y115.022 E18.51726
G1 X97.152 Y111.336 E18.56554
G1 X96.774 Y107.483 E18.61409
G1 X97.152 Y103.656 E18.66232
G1 X98.284 Y99.931 E18.71114
G1 X100.108 Y96.53 E18.75954
G1 X102.566 Y93.542 E18.80806
G0 F15000 X102.85 Y93.826
G1 F1350 X105.748 Y91.442 E18.85511
G1 X109.13 Y89.637 E18.90319
G1 X112.743 Y88.546 E18.95052
G1 X116.52 Y88.176 E18.99811
G1 X120.263 Y88.546 E19.04528
G1 X123.914 Y89.655 E19.09313
G1 X127.248 Y91.443 E19.14057
G1 X130.174 Y93.85 E19.18808
G1 X132.558 Y96.748 E19.23514
G1 X134.363 Y100.13 E19.28321
G1 X135.454 Y103.742 E19.33053
G1 X135.824 Y107.517 E19.3781
G1 X135.454 Y111.263 E19.4253
G1 X134.344 Y114.918 E19.47321
G1 X132.561 Y118.243 E19.52052
G1 X130.15 Y121.174 E19.56811
G1 X127.252 Y123.558 E19.61517
G1 X123.87 Y125.363 E19.66325
G1 X120.257 Y126.454 E19.71057
G1 X116.48 Y126.824 E19.75817
G1 X112.737 Y126.454 E19.80533
G1 X109.086 Y125.345 E19.85318
G1 X105.752 Y123.557 E19.90063
G1 X102.822 Y121.146 E19.94821
G1 X100.441 Y118.251 E19.99522
G1 X98.637 Y114.87 E20.04327
G1 X97.546 Y111.257 E20.0906
G1 X97.176 Y107.483 E20.13816
G1 X97.546 Y103.736 E20.18537
G1 X98.655 Y100.086 E20.23321
G1 X100.443 Y96.752 E20.28065
G1 X102.85 Y93.826 E20.32817
G0 F15000 X103.134 Y94.11
G1 F1350 X105.972 Y91.776 E20.37425
G1 X109.282 Y90.009 E20.4213
G1 X112.822 Y88.94 E20.46767
G1 X116.52 Y88.578 E20.51427
G1 X120.183 Y88.94 E20.56043
G1 X123.763 Y90.027 E20.60735
G1 X127.022 Y91.775 E20.65372
G1 X129.89 Y94.134 E20.70029
G1 X132.224 Y96.972 E20.74637
G1 X133.991 Y100.282 E20.79342
G1 X135.06 Y103.821 E20.83978
G1 X135.422 Y107.517 E20.88636
G1 X135.06 Y111.183 E20.93255
G1 X133.973 Y114.763 E20.97947
G1 X132.226 Y118.021 E21.02583
G1 X129.866 Y120.89 E21.07242
G1 X127.028 Y123.224 E21.1185
G1 X123.718 Y124.991 E21.16555
G1 X120.178 Y126.06 E21.21192
G1 X116.48 Y126.422 E21.25852
G1 X112.817 Y126.06 E21.30468
G1 X109.237 Y124.973 E21.3516
G1 X105.978 Y123.225 E21.39797
G1 X103.106 Y120.862 E21.44461
G1 X100.775 Y118.027 E21.49064
G1 X99.009 Y114.718 E21.53767
G1 X97.94 Y111.178 E21.58405
G1 X97.578 Y107.483 E21.63061
G1 X97.94 Y103.816 E21.67681
G1 X99.027 Y100.237 E21.72372
G1 X100.775 Y96.978 E21.7701
G1 X103.134 Y94.11 E21.81667
G0 F15000 X103.418 Y94.394
G1 F1350 X106.196 Y92.11 E21.86177
G1 X109.434 Y90.381 E21.9078
G1 X112.901 Y89.334 E21.95322
G1 X116.52 Y88.98 E21.99882
G1 X120.103 Y89.334 E22.04397
G1 X123.608 Y90.398 E22.0899
G1 X126.8 Y92.11 E22.13532
G1 X129.606 Y94.418 E22.18089
G1 X131.89 Y97.196 E22.22599
G1 X133.619 Y100.434 E22.27202
G1 X134.666 Y103.9 E22.31742
G1 X135.02 Y107.517 E22.363
G1 X134.666 Y111.103 E22.40819
G1 X133.602 Y114.608 E22.45412
G1 X131.891 Y117.799 E22.49953
G1 X129.582 Y120.606 E22.54511
G1 X126.804 Y122.89 E22.59021
G1 X123.566 Y124.619 E22.63624
G1 X120.099 Y125.666 E22.68166
G1 X116.48 Y126.02 E22.72726
G1 X112.897 Y125.666 E22.77241
G1 X109.392 Y124.602 E22.81834
G1 X106.2 Y122.89 E22.86376
G1 X103.39 Y120.578 E22.9094
G1 X101.109 Y117.803 E22.95444
G1 X99.381 Y114.566 E23.00046
G1 X98.334 Y111.099 E23.04588
G1 X97.98 Y107.483 E23.09144
G1 X98.334 Y103.896 E23.13664
G1 X99.398 Y100.392 E23.18256
G1 X101.11 Y97.2 E23.22799
G1 X103.418 Y94.394 E23.27355
G0 F15000 X103.702 Y94.678
G1 F1350 X106.42 Y92.444 E23.31767
G1 X109.586 Y90.753 E23.36268
G1 X112.98 Y89.728 E23.40714
G1 X116.52 Y89.382 E23.45174
G1 X120.023 Y89.728 E23.49589
G1 X123.453 Y90.769 E23.54084
G1 X126.578 Y92.445 E23.58531
G1 X129.322 Y94.702 E23.62986
G1 X131.556 Y97.42 E23.67398
G1 X133.247 Y100.586 E23.71899
G1 X134.272 Y103.979 E23.76344
G1 X134.618 Y107.517 E23.80802
G1 X134.272 Y111.023 E23.8522
G1 X133.231 Y114.453 E23.89715
G1 X131.556 Y117.577 E23.9416
G1 X129.298 Y120.322 E23.98618
G1 X126.58 Y122.556 E24.0303
G1 X123.414 Y124.247 E24.07531
G1 X120.02 Y125.272 E24.11977
G1 X116.48 Y125.618 E24.16437
G1 X112.977 Y125.272 E24.20852
G1 X109.547 Y124.231 E24.25347
G1 X106.422 Y122.555 E24.29794
G1 X103.674 Y120.294 E24.34256
G1 X101.443 Y117.579 E24.38663
G1 X99.753 Y114.414 E24.43163
G1 X98.728 Y111.02 E24.47609
G1 X98.382 Y107.483 E24.52065
G1 X98.728 Y103.976 E24.56485
G1 X99.769 Y100.547 E24.60978
G1 X101.445 Y97.422 E24.65425
G1 X103.702 Y94.678 E24.69881
G0 F15000 X103.986 Y94.962
G1 F1350 X106.644 Y92.778 E24.74195
G1 X109.738 Y91.125 E24.78594
G1 X113.059 Y90.122 E24.82944
G1 X116.52 Y89.784 E24.87305
G1 X119.943 Y90.122 E24.91619
G1 X123.298 Y91.14 E24.96015
G1 X126.356 Y92.78 E25.00367
G1 X129.038 Y94.986 E25.04722
G1 X131.222 Y97.644 E25.09036
G1 X132.875 Y100.738 E25.13435
G1 X133.878 Y104.058 E25.17784
