;START_OF_HEADER
;HEADER_VERSION:0.1
;FLAVOR:Griffin
;GENERATOR.NAME:Cura_SteamEngine
;GENERATOR.VERSION:5.6.0
;GENERATOR.BUILD_DATE:2023-11-28
;TARGET_MACHINE.NAME:Ultimaker 3 Extended
;EXTRUDER_TRAIN.0.INITIAL_TEMPERATURE:200
;EXTRUDER_TRAIN.0.MATERIAL.VOLUME_USED:1319
;EXTRUDER_TRAIN.0.MATERIAL.GUID:506c9f0d-e3aa-4bd4-b2d2-23e2425b1aa9
;EXTRUDER_TRAIN.0.NOZZLE.DIAMETER:0.4
;EXTRUDER_TRAIN.0.NOZZLE.NAME:AA 0.4
;BUILD_PLATE.INITIAL_TEMPERATURE:60
;PRINT.TIME:879
;PRINT.GROUPS:1
;PRINT.SIZE.MIN.X:9
;PRINT.SIZE.MIN.Y:6
;PRINT.SIZE.MIN.Z:0.2
;PRINT.SIZE.MAX.X:131.848
;PRINT.SIZE.MAX.Y:122.848
;PRINT.SIZE.MAX.Z:8.15
;SLICE_UUID:cbdb25bc-35c4-4454-a90d-cd954eab6a83
;END_OF_HEADER
;Generated with Cura_SteamEngine 5.6.0
T0
M82 ;absolute extrusion mode

G92 E0
M190 S60
M109 S200
G0 F15000 X9 Y6 Z2
G280
G1 F1500 E-6.5
;LAYER_COUNT:54
;LAYER:0
M106 S255
M204 S1000
M205 X20 Y20
G1 F600 Z2.2
G0 F15000 X105.646 Y96.648 Z2.2
;TYPE:SKIRT
G1 F600 Z0.2
G1 F1500 E0
G1 F1350 X107.976 Y94.744 E0.03773
G1 X110.632 Y93.318 E0.07554
G1 X113.489 Y92.448 E0.11299
G1 X116.532 Y92.152 E0.15133
G1 X119.498 Y92.448 E0.18871
G1 X122.416 Y93.328 E0.22693
G1 X125.079 Y94.771 E0.26491
G1 X127.352 Y96.646 E0.30186
G1 X129.25 Y98.968 E0.33947
G1 X130.686 Y101.642 E0.37754
G1 X131.552 Y104.486 E0.41482
G1 X131.848 Y107.522 E0.45307
G1 X131.552 Y110.505 E0.49066
G1 X130.674 Y113.413 E0.52876
G1 X129.229 Y116.079 E0.56678
G1 X127.354 Y118.352 E0.60373
G1 X125.024 Y120.256 E0.64147
G1 X122.368 Y121.682 E0.67927
G1 X119.511 Y122.552 E0.71672
G1 X116.466 Y122.848 E0.75509
G1 X113.513 Y122.552 E0.79231
G1 X110.594 Y121.673 E0.83054
G1 X107.95 Y120.241 E0.86824
G1 X105.603 Y118.297 E0.90646
G1 X103.737 Y116.015 E0.94343
G1 X102.321 Y113.377 E0.98097
G1 X101.448 Y110.51 E1.01856
G1 X101.152 Y107.478 E1.05676
G1 X101.448 Y104.494 E1.09436
G1 X102.327 Y101.585 E1.13247
G1 X103.771 Y98.921 E1.17047
G1 X105.646 Y96.648 E1.20742
G0 F15000 X105.932 Y96.931
G1 F1350 X108.202 Y95.076 E1.24419
G1 X110.782 Y93.691 E1.28091
G1 X113.57 Y92.842 E1.31745
G1 X116.531 Y92.554 E1.35476
G1 X119.419 Y92.842 E1.39116
G1 X122.26 Y93.699 E1.42837
G1 X124.853 Y95.104 E1.46535
G1 X127.069 Y96.932 E1.50138
G1 X128.918 Y99.194 E1.53802
G1 X130.313 Y101.792 E1.575
G1 X131.158 Y104.567 E1.61137
G1 X131.446 Y107.522 E1.64861
G1 X131.158 Y110.425 E1.68519
G1 X130.303 Y113.257 E1.72229
G1 X128.896 Y115.853 E1.75932
G1 X127.068 Y118.069 E1.79534
G1 X124.798 Y119.924 E1.8321
G1 X122.218 Y121.309 E1.86882
G1 X119.43 Y122.158 E1.90537
G1 X116.467 Y122.446 E1.9427
G1 X113.591 Y122.158 E1.97895
G1 X110.751 Y121.303 E2.01614
G1 X108.172 Y119.906 E2.05293
G1 X105.889 Y118.015 E2.0901
G1 X104.069 Y115.789 E2.12616
G1 X102.694 Y113.227 E2.16262
G1 X101.842 Y110.429 E2.1993
G1 X101.554 Y107.478 E2.23648
G1 X101.842 Y104.574 E2.27308
G1 X102.698 Y101.741 E2.31019
G1 X104.104 Y99.147 E2.34719
G1 X105.932 Y96.931 E2.38322
G0 F15000 X106.218 Y97.214
G1 F1350 X108.428 Y95.408 E2.41901
G1 X110.932 Y94.064 E2.45465
G1 X113.651 Y93.236 E2.49029
G1 X116.53 Y92.956 E2.52656
G1 X119.341 Y93.236 E2.56199
G1 X122.103 Y94.069 E2.59817
G1 X124.627 Y95.437 E2.63417
G1 X126.786 Y97.218 E2.66927
G1 X128.586 Y99.42 E2.70493
G1 X129.94 Y101.942 E2.74083
G1 X130.764 Y104.648 E2.7763
G1 X131.044 Y107.522 E2.81251
G1 X130.764 Y110.345 E2.84809
G1 X129.932 Y113.101 E2.88419
G1 X128.563 Y115.627 E2.92022
G1 X126.782 Y117.786 E2.95532
G1 X124.572 Y119.592 E2.99111
G1 X122.068 Y120.936 E3.02675
G1 X119.349 Y121.764 E3.06239
G1 X116.468 Y122.044 E3.09869
G1 X113.669 Y121.764 E3.13397
G1 X110.908 Y120.933 E3.17012
G1 X108.394 Y119.571 E3.20598
G1 X106.175 Y117.733 E3.24211
G1 X104.401 Y115.563 E3.27726
G1 X103.067 Y113.077 E3.31264
G1 X102.236 Y110.348 E3.34842
G1 X101.956 Y107.478 E3.38458
G1 X102.236 Y104.654 E3.42017
G1 X103.069 Y101.897 E3.45628
G1 X104.437 Y99.373 E3.49228
G1 X106.218 Y97.214 E3.52738
G0 F15000 X106.504 Y97.497
G1 F1350 X108.654 Y95.74 E3.5622
G1 X111.082 Y94.437 E3.59676
G1 X113.732 Y93.63 E3.6315
G1 X116.529 Y93.358 E3.66674
G1 X119.262 Y93.63 E3.70118
G1 X121.947 Y94.44 E3.73635
G1 X124.401 Y95.77 E3.77135
G1 X126.503 Y97.504 E3.80552
G1 X128.254 Y99.646 E3.84022
G1 X129.567 Y102.092 E3.87503
G1 X130.37 Y104.729 E3.9096
G1 X130.642 Y107.522 E3.94479
G1 X130.37 Y110.265 E3.97936
G1 X129.561 Y112.945 E4.01446
G1 X128.23 Y115.401 E4.0495
G1 X126.496 Y117.503 E4.08367
G1 X124.346 Y119.26 E4.11849
G1 X121.918 Y120.563 E4.15304
G1 X119.268 Y121.37 E4.18778
G1 X116.469 Y121.642 E4.22305
G1 X113.747 Y121.37 E4.25735
G1 X111.063 Y120.562 E4.2925
G1 X108.618 Y119.238 E4.32737
G1 X106.461 Y117.451 E4.3625
G1 X104.733 Y115.337 E4.39674
G1 X103.44 Y112.927 E4.43103
G1 X102.63 Y110.267 E4.4659
G1 X102.358 Y107.478 E4.50104
G1 X102.63 Y104.734 E4.53562
G1 X103.44 Y102.053 E4.57075
G1 X104.77 Y99.599 E4.60575
G1 X106.504 Y97.497 E4.63992
G0 F15000 X106.79 Y97.78
G1 F1350 X108.88 Y96.072 E4.67377
G1 X111.232 Y94.81 E4.70724
G1 X113.813 Y94.024 E4.74108
G1 X116.528 Y93.76 E4.77528
G1 X119.183 Y94.024 E4.80874
G1 X121.791 Y94.811 E4.8429
G1 X124.175 Y96.103 E4.87691
G1 X126.22 Y97.79 E4.91015
G1 X127.922 Y99.872 E4.94388
G1 X129.194 Y102.242 E4.97761
G1 X129.976 Y104.81 E5.01127
G1 X130.24 Y107.522 E5.04544
G1 X129.976 Y110.185 E5.079
G1 X129.19 Y112.789 E5.11311
G1 X127.897 Y115.175 E5.14714
G1 X126.21 Y117.22 E5.18039
G1 X124.12 Y118.928 E5.21424
G1 X121.768 Y120.19 E5.24771
G1 X119.187 Y120.976 E5.28154
G1 X116.47 Y121.24 E5.31577
G1 X113.825 Y120.976 E5.34911
G1 X111.218 Y120.191 E5.38325
G1 X108.842 Y118.905 E5.41713
G1 X106.747 Y117.169 E5.45125
G1 X105.065 Y115.111 E5.48458
G1 X103.813 Y112.777 E5.5178
G1 X103.024 Y110.186 E5.55176
G1 X102.76 Y107.478 E5.58588
G1 X103.024 Y104.814 E5.61945
G1 X103.811 Y102.209 E5.65358
G1 X105.103 Y99.825 E5.68758
G1 X106.79 Y97.78 E5.72083
G0 F15000 X107.076 Y98.063
G1 F1350 X109.106 Y96.404 E5.75371
G1 X111.382 Y95.183 E5.7861
G1 X113.894 Y94.418 E5.81903
G1 X116.527 Y94.162 E5.8522
G1 X119.104 Y94.418 E5.88468
G1 X121.635 Y95.182 E5.91783
G1 X123.949 Y96.436 E5.95084
G1 X125.937 Y98.076 E5.98315
G1 X127.59 Y100.098 E6.01591
G1 X128.821 Y102.392 E6.04855
G1 X129.582 Y104.891 E6.08131
G1 X129.838 Y107.522 E6.11446
G1 X129.582 Y110.105 E6.14701
G1 X128.819 Y112.633 E6.18013
G1 X127.564 Y114.949 E6.21316
G1 X125.924 Y116.937 E6.24548
G1 X123.894 Y118.596 E6.27836
G1 X121.618 Y119.817 E6.31075
G1 X119.106 Y120.582 E6.34368
G1 X116.471 Y120.838 E6.37687
G1 X113.903 Y120.582 E6.40924
G1 X111.373 Y119.82 E6.44237
G1 X109.066 Y118.572 E6.47527
G1 X107.033 Y116.887 E6.50838
G1 X105.397 Y114.885 E6.5408
G1 X104.185 Y112.626 E6.57295
G1 X103.418 Y110.106 E6.60598
G1 X103.162 Y107.478 E6.63909
G1 X103.418 Y104.894 E6.67166
G1 X104.182 Y102.365 E6.70479
G1 X105.436 Y100.051 E6.73779
G1 X107.076 Y98.063 E6.77011
G0 F15000 X107.362 Y98.346
G1 F1350 X109.332 Y96.736 E6.80202
G1 X111.533 Y95.555 E6.83334
G1 X113.974 Y94.812 E6.86534
G1 X116.526 Y94.564 E6.89749
G1 X119.025 Y94.812 E6.92898
G1 X121.479 Y95.553 E6.96113
G1 X123.723 Y96.769 E6.99314
G1 X125.654 Y98.362 E7.02453
G1 X127.258 Y100.324 E7.05631
G1 X128.448 Y102.542 E7.08787
G1 X129.188 Y104.972 E7.11973
G1 X129.436 Y107.522 E7.15186
G1 X129.188 Y110.025 E7.1834
G1 X128.448 Y112.477 E7.21552
G1 X127.231 Y114.723 E7.24755
G1 X125.638 Y116.654 E7.27895
G1 X123.668 Y118.264 E7.31085
G1 X121.467 Y119.445 E7.34218
G1 X119.026 Y120.188 E7.37417
G1 X116.472 Y120.436 E7.40635
G1 X113.981 Y120.188 E7.43774
G1 X111.528 Y119.449 E7.46987
G1 X109.29 Y118.239 E7.50178
G1 X107.319 Y116.605 E7.53388
G1 X105.732 Y114.663 E7.56533
G1 X104.557 Y112.472 E7.59651
G1 X103.812 Y110.025 E7.62859
G1 X103.564 Y107.478 E7.66068
G1 X103.812 Y104.974 E7.69223
G1 X104.553 Y102.521 E7.72437
G1 X105.769 Y100.277 E7.75637
G1 X107.362 Y98.346 E7.78777
G0 F15000 X107.648 Y98.629
G1 F1350 X109.554 Y97.071 E7.81864
G1 X111.687 Y95.927 E7.84899
G1 X114.055 Y95.206 E7.88003
G1 X116.526 Y94.966 E7.91117
G1 X118.945 Y95.206 E7.94165
G1 X121.323 Y95.924 E7.9728
G1 X123.497 Y97.102 E8.00381
G1 X125.371 Y98.648 E8.03427
G1 X126.926 Y100.55 E8.06508
G1 X128.075 Y102.692 E8.09556
G1 X128.794 Y105.053 E8.12651
G1 X129.034 Y107.522 E8.15762
G1 X128.794 Y109.945 E8.18816
G1 X128.077 Y112.321 E8.21928
G1 X126.898 Y114.497 E8.25032
G1 X125.352 Y116.371 E8.28078
G1 X123.446 Y117.929 E8.31165
G1 X121.313 Y119.073 E8.34201
G1 X118.945 Y119.794 E8.37305
G1 X116.473 Y120.034 E8.40419
G1 X114.059 Y119.794 E8.43461
G1 X111.683 Y119.078 E8.46573
G1 X109.514 Y117.906 E8.49665
G1 X107.605 Y116.323 E8.52775
G1 X106.067 Y114.441 E8.55823
G1 X104.928 Y112.317 E8.58845
G1 X104.206 Y109.945 E8.61955
G1 X103.966 Y107.478 E8.65063
G1 X104.206 Y105.054 E8.68118
G1 X104.924 Y102.677 E8.71232
G1 X106.102 Y100.503 E8.74332
G1 X107.648 Y98.629 E8.77379
G0 F15000 X107.934 Y98.912
G1 F1350 X109.776 Y97.406 E8.80363
G1 X111.842 Y96.298 E8.83302
G1 X114.135 Y95.6 E8.86308
G1 X116.526 Y95.368 E8.89321
G1 X118.865 Y95.6 E8.92268
G1 X121.167 Y96.295 E8.95284
G1 X123.271 Y97.435 E8.98285
G1 X125.088 Y98.934 E9.01239
G1 X126.594 Y100.776 E9.04222
G1 X127.703 Y102.843 E9.07164
G1 X128.4 Y105.133 E9.10166
G1 X128.632 Y107.522 E9.13176
G1 X128.4 Y109.865 E9.16128
G1 X127.706 Y112.165 E9.19141
G1 X126.565 Y114.271 E9.22145
G1 X125.066 Y116.088 E9.25099
G1 X123.224 Y117.594 E9.28082
G1 X121.158 Y118.702 E9.31022
G1 X118.865 Y119.4 E9.34028
G1 X116.474 Y119.632 E9.37041
G1 X114.137 Y119.4 E9.39986
G1 X111.838 Y118.707 E9.42997
G1 X109.738 Y117.573 E9.4599
G1 X107.891 Y116.041 E9.48999
G1 X106.399 Y114.215 E9.51956
G1 X105.3 Y112.166 E9.54872
G1 X104.6 Y109.865 E9.57888
G1 X104.368 Y107.478 E9.60895
G1 X104.6 Y105.134 E9.63849
G1 X105.295 Y102.833 E9.66864
G1 X106.435 Y100.729 E9.69865
G1 X107.934 Y98.912 E9.72818
G0 F15000 X108.22 Y99.195
G1 F1350 X109.998 Y97.741 E9.75699
G1 X111.997 Y96.669 E9.78543
G1 X114.215 Y95.994 E9.81451
G1 X116.526 Y95.77 E9.84362
G1 X118.785 Y95.994 E9.87209
G1 X121.011 Y96.666 E9.90125
G1 X123.045 Y97.768 E9.93026
G1 X124.805 Y99.22 E9.95887
G1 X126.259 Y100.998 E9.98768
G1 X127.331 Y102.997 E10.01612
G1 X128.006 Y105.214 E10.04518
G1 X128.23 Y107.522 E10.07426
G1 X128.006 Y109.785 E10.10278
G1 X127.334 Y112.011 E10.13194
G1 X126.233 Y114.044 E10.16093
G1 X124.78 Y115.805 E10.18956
G1 X123.002 Y117.259 E10.21837
G1 X121.003 Y118.331 E10.24681
G1 X118.785 Y119.006 E10.27589
G1 X116.474 Y119.23 E10.305
G1 X114.215 Y119.006 E10.33347
G1 X111.993 Y118.336 E10.36257
G1 X109.962 Y117.239 E10.39152
G1 X108.177 Y115.759 E10.4206
G1 X106.734 Y113.993 E10.4492
G1 X105.671 Y112.011 E10.4774
G1 X104.994 Y109.785 E10.50658
G1 X104.77 Y107.478 E10.53565
G1 X104.994 Y105.214 E10.56418
G1 X105.666 Y102.989 E10.59332
G1 X106.768 Y100.955 E10.62233
G1 X108.22 Y99.195 E10.65095
G0 F15000 X108.506 Y99.478
G1 F1350 X110.22 Y98.076 E10.67871
G1 X112.152 Y97.04 E10.70621
G1 X114.295 Y96.388 E10.7343
G1 X116.526 Y96.172 E10.76241
G1 X118.705 Y96.388 E10.78986
G1 X120.857 Y97.038 E10.81806
G1 X122.818 Y98.1 E10.84602
G1 X124.522 Y99.506 E10.87373
G1 X125.924 Y101.22 E10.90149
G1 X126.96 Y103.152 E10.92899
G1 X127.612 Y105.294 E10.95706
G1 X127.828 Y107.522 E10.98514
G1 X127.612 Y109.705 E11.01264
G1 X126.963 Y111.855 E11.04081
G1 X125.898 Y113.821 E11.06885
G1 X124.497 Y115.52 E11.09646
G1 X122.78 Y116.924 E11.12428
G1 X120.848 Y117.96 E11.15177
G1 X118.705 Y118.612 E11.17986
G1 X116.474 Y118.828 E11.20797
G1 X114.295 Y118.612 E11.23543
G1 X112.147 Y117.964 E11.26356
G1 X110.186 Y116.905 E11.29151
G1 X108.463 Y115.477 E11.31957
G1 X107.069 Y113.771 E11.3472
G1 X106.042 Y111.856 E11.37445
G1 X105.388 Y109.705 E11.40265
G1 X105.172 Y107.478 E11.4307
G1 X105.388 Y105.294 E11.45823
G1 X106.038 Y103.143 E11.48641
G1 X107.1 Y101.182 E11.51437
G1 X108.506 Y99.478 E11.54208
G0 F15000 X108.789 Y99.763
G1 F1350 X110.446 Y98.408 E11.56892
G1 X112.303 Y97.412 E11.59534
G1 X114.375 Y96.782 E11.6225
G1 X116.526 Y96.574 E11.6496
G1 X118.625 Y96.782 E11.67605
G1 X120.701 Y97.409 E11.70325
G1 X122.595 Y98.435 E11.73026
G1 X124.237 Y99.789 E11.75695
G1 X125.592 Y101.446 E11.78379
G1 X126.588 Y103.303 E11.81022
G1 X127.218 Y105.374 E11.83736
G1 X127.426 Y107.522 E11.86443
G1 X127.218 Y109.625 E11.89093
G1 X126.592 Y111.699 E11.9181
G1 X125.563 Y113.598 E11.94518
G1 X124.214 Y115.235 E11.97178
G1 X122.554 Y116.592 E11.99867
G1 X120.697 Y117.588 E12.02509
G1 X118.625 Y118.218 E12.05225
G1 X116.474 Y118.426 E12.07935
G1 X114.375 Y118.218 E12.1058
G1 X112.301 Y117.592 E12.13297
G1 X110.41 Y116.571 E12.15992
G1 X108.749 Y115.195 E12.18697
G1 X107.404 Y113.549 E12.21363
G1 X106.413 Y111.701 E12.23992
G1 X105.782 Y109.625 E12.26713
G1 X105.574 Y107.478 E12.29418
G1 X105.782 Y105.374 E12.3207
G1 X106.409 Y103.299 E12.34788
G1 X107.435 Y101.405 E12.37489
G1 X108.789 Y99.763 E12.40158
G0 F15000 X109.072 Y100.048
G1 F1350 X110.668 Y98.743 E12.42743
G1 X112.458 Y97.783 E12.45291
G1 X114.455 Y97.176 E12.47908
G1 X116.525 Y96.976 E12.50516
G1 X118.545 Y97.176 E12.53062
G1 X120.545 Y97.78 E12.55682
G1 X122.372 Y98.77 E12.58287
G1 X123.952 Y100.072 E12.60855
G1 X125.257 Y101.668 E12.6344
G1 X126.217 Y103.458 E12.65987
G1 X126.824 Y105.454 E12.68604
G1 X127.024 Y107.522 E12.71209
G1 X126.824 Y109.545 E12.73758
G1 X126.22 Y111.545 E12.76378
G1 X125.23 Y113.374 E12.78986
G1 X123.931 Y114.95 E12.81548
G1 X122.332 Y116.257 E12.84137
G1 X120.542 Y117.217 E12.86685
G1 X118.545 Y117.824 E12.89302
G1 X116.475 Y118.024 E12.9191
G1 X114.455 Y117.824 E12.94456
G1 X112.455 Y117.22 E12.97075
G1 X110.634 Y116.237 E12.99671
G1 X109.035 Y114.913 E13.02274
G1 X107.739 Y113.327 E13.04842
G1 X106.784 Y111.546 E13.07377
G1 X106.176 Y109.545 E13.09999
G1 X105.976 Y107.478 E13.12603
G1 X106.176 Y105.454 E13.15154
G1 X106.78 Y103.455 E13.17773
G1 X107.77 Y101.628 E13.20379
G1 X109.072 Y100.048 E13.22946
G0 F15000 X109.355 Y100.333
G1 F1350 X110.89 Y99.078 E13.25433
G1 X112.613 Y98.154 E13.27884
G1 X114.535 Y97.57 E13.30403
G1 X116.524 Y97.378 E13.32909
G1 X118.465 Y97.57 E13.35355
G1 X120.391 Y98.152 E13.37878
G1 X122.148 Y99.103 E13.40384
G1 X123.667 Y100.355 E13.42852
G1 X124.922 Y101.89 E13.45339
G1 X125.846 Y103.613 E13.4779
G1 X126.43 Y105.534 E13.50308
G1 X126.622 Y107.521 E13.52812
G1 X126.43 Y109.465 E13.55261
G1 X125.848 Y111.391 E13.57785
G1 X124.897 Y113.15 E13.60292
G1 X123.648 Y114.665 E13.62754
G1 X122.11 Y115.922 E13.65245
G1 X120.387 Y116.846 E13.67697
G1 X118.465 Y117.43 E13.70216
G1 X116.476 Y117.622 E13.72722
G1 X114.535 Y117.43 E13.75168
G1 X112.609 Y116.848 E13.77691
G1 X110.858 Y115.903 E13.80186
G1 X109.321 Y114.631 E13.82688
G1 X108.071 Y113.101 E13.85166
G1 X107.156 Y111.395 E13.87594
G1 X106.57 Y109.465 E13.90123
G1 X106.378 Y107.479 E13.92625
G1 X106.57 Y105.534 E13.95076
G1 X107.152 Y103.609 E13.97598
G1 X108.103 Y101.852 E14.00103
G1 X109.355 Y100.333 E14.02572
G0 F15000 X109.638 Y100.618
G1 F1350 X111.112 Y99.413 E14.04959
G1 X112.768 Y98.525 E14.07316
G1 X114.615 Y97.964 E14.09737
G1 X116.523 Y97.78 E14.1214
G1 X118.385 Y97.964 E14.14487
G1 X120.237 Y98.524 E14.16913
G1 X121.924 Y99.436 E14.19318
G1 X123.382 Y100.638 E14.21688
G1 X124.587 Y102.112 E14.24075
G1 X125.475 Y103.768 E14.26432
G1 X126.036 Y105.614 E14.28851
G1 X126.22 Y107.52 E14.31252
G1 X126.036 Y109.385 E14.33602
G1 X125.476 Y111.237 E14.36029
G1 X124.564 Y112.926 E14.38436
G1 X123.365 Y114.38 E14.40799
G1 X121.888 Y115.587 E14.43191
G1 X120.232 Y116.475 E14.45548
G1 X118.385 Y117.036 E14.47968
G1 X116.477 Y117.22 E14.50372
G1 X114.615 Y117.036 E14.52719
G1 X112.763 Y116.476 E14.55145
G1 X111.082 Y115.569 E14.5754
G1 X109.607 Y114.349 E14.59941
G1 X108.406 Y112.879 E14.62321
G1 X107.527 Y111.24 E14.64653
G1 X106.964 Y109.385 E14.67084
G1 X106.78 Y107.48 E14.69485
G1 X106.964 Y105.614 E14.71836
G1 X107.524 Y103.763 E14.74261
G1 X108.436 Y102.076 E14.76666
G1 X109.638 Y100.618 E14.79036
G0 F15000 X109.921 Y100.903
G1 F1350 X111.338 Y99.745 E14.8133
G1 X112.919 Y98.897 E14.8358
G1 X114.695 Y98.358 E14.85908
G1 X116.522 Y98.182 E14.88209
G1 X118.305 Y98.358 E14.90456
G1 X120.083 Y98.896 E14.92786
G1 X121.7 Y99.769 E14.9509
G1 X123.097 Y100.921 E14.97361
