;START_OF_HEADER
;HEADER_VERSION:0.1
;FLAVOR:Griffin
;GENERATOR.NAME:Cura_SteamEngine
;GENERATOR.VERSION:5.6.0
;GENERATOR.BUILD_DATE:2023-11-28
;TARGET_MACHINE.NAME:Ultimaker 3 Extended
;EXTRUDER_TRAIN.0.INITIAL_TEMPERATURE:200
;EXTRUDER_TRAIN.0.MATERIAL.VOLUME_USED:1551
;EXTRUDER_TRAIN.0.MATERIAL.GUID:506c9f0d-e3aa-4bd4-b2d2-23e2425b1aa9
;EXTRUDER_TRAIN.0.NOZZLE.DIAMETER:0.4
;EXTRUDER_TRAIN.0.NOZZLE.NAME:AA 0.4
;BUILD_PLATE.INITIAL_TEMPERATURE:60
;PRINT.TIME:1449
;PRINT.GROUPS:1
;PRINT.SIZE.MIN.X:9
;PRINT.SIZE.MIN.Y:6
;PRINT.SIZE.MIN.Z:0.2
;PRINT.SIZE.MAX.X:132.559
;PRINT.SIZE.MAX.Y:123.559
;PRINT.SIZE.MAX.Z:19.9
;SLICE_UUID:d2a64f5f-a677-4a4c-86ec-0930d2d4521b
;END_OF_HEADER
;Generated with Cura_SteamEngine 5.6.0
T0
M82 ;absolute extrusion mode

G92 E0
M190 S60
M109 S200
G0 F15000 X9 Y6 Z2
G280
G1 F1500 E-6.5
;LAYER_COUNT:128
;LAYER:0
M106 S255
M204 S1000
M205 X20 Y20
G1 F600 Z2.2
G0 F15000 X105.381 Y95.919 Z2.2
;TYPE:SKIRT
G1 F600 Z0.2
G1 F1500 E0
G1 F1350 X106.352 Y95.057 E0.01628
G1 X107.651 Y94.104 E0.03649
G1 X109.382 Y93.1 E0.06158
G1 X110.242 Y92.706 E0.07344
G1 X112.264 Y92.013 E0.10025
G1 X113.598 Y91.708 E0.11741
G1 X115.191 Y91.496 E0.13756
G1 X116.832 Y91.441 E0.15815
G1 X117.684 Y91.481 E0.16885
G1 X119.825 Y91.789 E0.19597
G1 X120.796 Y92.028 E0.20851
G1 X122.486 Y92.605 E0.23091
G1 X123.905 Y93.258 E0.2505
G1 X125.57 Y94.255 E0.27483
G1 X126.907 Y95.265 E0.29585
G1 X127.724 Y96.01 E0.30971
G1 X129.049 Y97.483 E0.33456
G1 X129.964 Y98.747 E0.35413
G1 X130.774 Y100.136 E0.37429
G1 X131.352 Y101.391 E0.39162
G1 X131.983 Y103.239 E0.4161
G1 X132.272 Y104.483 E0.43212
G1 X132.51 Y106.271 E0.45474
G1 X132.559 Y107.83 E0.4743
G1 X132.519 Y108.684 E0.48502
G1 X132.211 Y110.825 E0.51215
G1 X132.002 Y111.692 E0.52333
G1 X131.295 Y113.751 E0.55063
G1 X130.884 Y114.646 E0.56298
G1 X129.738 Y116.603 E0.59142
G1 X129.166 Y117.383 E0.60355
G1 X127.616 Y119.084 E0.63241
G1 X126.792 Y119.823 E0.64629
G1 X125.078 Y121.079 E0.67294
G1 X124.106 Y121.646 E0.68705
G1 X122.404 Y122.429 E0.71054
G1 X120.743 Y122.986 E0.73251
G1 X119.785 Y123.217 E0.74487
G1 X117.603 Y123.519 E0.77249
G1 X116.168 Y123.559 E0.7905
G1 X115.316 Y123.519 E0.80119
G1 X113.176 Y123.211 E0.82831
G1 X112.309 Y123.002 E0.83949
G1 X110.242 Y122.294 E0.86689
G1 X109.382 Y121.9 E0.87875
G1 X107.396 Y120.737 E0.90761
G1 X106.615 Y120.164 E0.91976
G1 X105.019 Y118.719 E0.94676
G1 X103.871 Y117.426 E0.96844
G1 X103.24 Y116.566 E0.98182
G1 X102.207 Y114.804 E1.00743
G1 X101.519 Y113.269 E1.02853
G1 X101.014 Y111.743 E1.04868
G1 X100.783 Y110.785 E1.06104
G1 X100.481 Y108.604 E1.08865
G1 X100.441 Y107.17 E1.10664
G1 X100.481 Y106.316 E1.11737
G1 X100.789 Y104.176 E1.14448
G1 X100.998 Y103.309 E1.15566
G1 X101.706 Y101.247 E1.183
G1 X102.116 Y100.354 E1.19532
G1 X103.262 Y98.397 E1.22376
G1 X103.834 Y97.617 E1.23589
G1 X105.381 Y95.919 E1.2647
G0 F15000 X105.647 Y96.218
G1 F1350 X106.589 Y95.38 E1.28051
G1 X107.888 Y94.427 E1.30071
G1 X109.549 Y93.464 E1.32479
G1 X110.409 Y93.07 E1.33665
G1 X112.393 Y92.392 E1.36295
G1 X113.651 Y92.105 E1.37913
G1 X115.244 Y91.893 E1.39928
G1 X116.813 Y91.841 E1.41897
G1 X117.665 Y91.881 E1.42966
G1 X119.73 Y92.178 E1.45583
G1 X120.667 Y92.407 E1.46792
G1 X122.357 Y92.984 E1.49032
G1 X123.7 Y93.601 E1.50885
G1 X125.329 Y94.574 E1.53265
G1 X126.637 Y95.561 E1.55319
G1 X127.454 Y96.306 E1.56706
G1 X128.725 Y97.718 E1.59088
G1 X129.618 Y98.949 E1.60996
G1 X130.428 Y100.338 E1.63012
G1 X130.988 Y101.558 E1.64695
G1 X131.604 Y103.368 E1.67093
G1 X131.875 Y104.536 E1.68597
G1 X132.113 Y106.324 E1.70859
G1 X132.159 Y107.811 E1.72724
G1 X132.119 Y108.665 E1.73796
G1 X131.822 Y110.731 E1.76414
G1 X131.613 Y111.598 E1.77532
G1 X130.931 Y113.584 E1.80166
G1 X130.52 Y114.479 E1.81401
G1 X129.415 Y116.366 E1.84143
G1 X128.843 Y117.146 E1.85356
G1 X127.349 Y118.786 E1.88138
G1 X126.525 Y119.525 E1.89526
G1 X124.876 Y120.733 E1.92089
G1 X123.904 Y121.3 E1.935
G1 X122.237 Y122.065 E1.95801
G1 X120.649 Y122.597 E1.97901
G1 X119.691 Y122.828 E1.99137
G1 X117.592 Y123.119 E2.01794
G1 X116.187 Y123.159 E2.03557
G1 X115.335 Y123.119 E2.04626
G1 X113.27 Y122.822 E2.07242
G1 X112.403 Y122.613 E2.08361
G1 X110.409 Y121.93 E2.11004
G1 X109.549 Y121.536 E2.1219
G1 X107.633 Y120.414 E2.14975
G1 X106.852 Y119.841 E2.16189
G1 X105.288 Y118.423 E2.18837
G1 X104.194 Y117.189 E2.20905
G1 X103.563 Y116.329 E2.22242
G1 X102.572 Y114.64 E2.24698
G1 X101.884 Y113.105 E2.26808
G1 X101.403 Y111.649 E2.28731
G1 X101.172 Y110.691 E2.29966
G1 X100.881 Y108.593 E2.32623
G1 X100.841 Y107.189 E2.34384
G1 X100.881 Y106.335 E2.35456
G1 X101.178 Y104.27 E2.38072
G1 X101.387 Y103.403 E2.39191
G1 X102.07 Y101.414 E2.41828
G1 X102.48 Y100.521 E2.4306
G1 X103.585 Y98.634 E2.45802
G1 X104.157 Y97.854 E2.47015
G1 X105.647 Y96.218 E2.4979
G0 F15000 X105.913 Y96.517
G1 F1350 X106.826 Y95.703 E2.51324
G1 X108.125 Y94.75 E2.53345
G1 X109.716 Y93.828 E2.55651
G1 X110.576 Y93.434 E2.56837
G1 X112.482 Y92.782 E2.59363
G1 X113.704 Y92.502 E2.60935
G1 X115.297 Y92.29 E2.62951
G1 X116.794 Y92.241 E2.64829
G1 X117.646 Y92.281 E2.65898
G1 X119.636 Y92.567 E2.6842
G1 X120.538 Y92.786 E2.69584
G1 X122.228 Y93.363 E2.71823
G1 X123.495 Y93.945 E2.73572
G1 X125.088 Y94.894 E2.75897
G1 X126.367 Y95.857 E2.77905
G1 X127.184 Y96.602 E2.79291
G1 X128.401 Y97.953 E2.81571
G1 X129.272 Y99.151 E2.83429
G1 X130.082 Y100.54 E2.85445
G1 X130.609 Y101.687 E2.87028
G1 X131.225 Y103.497 E2.89426
G1 X131.478 Y104.589 E2.90831
G1 X131.716 Y106.377 E2.93093
G1 X131.759 Y107.792 E2.94869
G1 X131.719 Y108.646 E2.95941
G1 X131.433 Y110.637 E2.98463
G1 X131.224 Y111.504 E2.99582
G1 X130.567 Y113.417 E3.02118
G1 X130.156 Y114.312 E3.03353
G1 X129.092 Y116.129 E3.05994
G1 X128.52 Y116.909 E3.07207
G1 X127.082 Y118.488 E3.09885
G1 X126.258 Y119.227 E3.11273
G1 X124.674 Y120.387 E3.13735
G1 X123.702 Y120.954 E3.15146
G1 X122.11 Y121.686 E3.17344
G1 X120.555 Y122.208 E3.194
G1 X119.597 Y122.439 E3.20636
G1 X117.58 Y122.719 E3.2319
G1 X116.206 Y122.759 E3.24914
G1 X115.354 Y122.719 E3.25983
G1 X113.364 Y122.433 E3.28505
G1 X112.497 Y122.224 E3.29623
G1 X110.576 Y121.566 E3.32169
G1 X109.716 Y121.172 E3.33356
G1 X107.87 Y120.091 E3.36038
G1 X107.089 Y119.518 E3.37253
G1 X105.587 Y118.157 E3.39795
G1 X104.517 Y116.952 E3.41816
G1 X103.886 Y116.092 E3.43153
G1 X102.937 Y114.476 E3.45503
G1 X102.249 Y112.941 E3.47613
G1 X101.792 Y111.555 E3.49443
G1 X101.561 Y110.597 E3.50679
G1 X101.281 Y108.581 E3.53231
G1 X101.241 Y107.208 E3.54954
G1 X101.281 Y106.354 E3.56026
G1 X101.567 Y104.364 E3.58547
G1 X101.776 Y103.497 E3.59665
G1 X102.434 Y101.581 E3.62206
G1 X102.844 Y100.688 E3.63438
G1 X103.908 Y98.871 E3.66079
G1 X104.48 Y98.091 E3.67292
G1 X105.913 Y96.517 E3.69961
G0 F15000 X106.18 Y96.815
G1 F1350 X107.063 Y96.026 E3.71446
G1 X108.362 Y95.073 E3.73466
G1 X109.883 Y94.192 E3.75671
G1 X110.743 Y93.798 E3.76857
G1 X112.572 Y93.172 E3.79281
G1 X113.757 Y92.899 E3.80806
G1 X115.35 Y92.687 E3.82821
G1 X116.775 Y92.641 E3.84609
G1 X117.627 Y92.681 E3.85679
G1 X119.542 Y92.956 E3.88105
G1 X120.409 Y93.165 E3.89223
G1 X122.099 Y93.742 E3.91463
G1 X123.29 Y94.289 E3.93106
G1 X124.883 Y95.238 E3.95432
G1 X126.097 Y96.153 E3.97338
G1 X126.914 Y96.898 E3.98725
G1 X128.078 Y98.189 E4.00905
G1 X128.926 Y99.353 E4.0271
G1 X129.736 Y100.742 E4.04727
G1 X130.23 Y101.816 E4.06209
G1 X130.835 Y103.588 E4.08557
G1 X131.081 Y104.642 E4.09915
G1 X131.319 Y106.43 E4.12177
G1 X131.359 Y107.773 E4.13862
G1 X131.319 Y108.627 E4.14934
G1 X131.044 Y110.543 E4.17361
G1 X130.835 Y111.41 E4.1848
G1 X130.203 Y113.25 E4.20919
G1 X129.792 Y114.145 E4.22154
G1 X128.769 Y115.892 E4.24693
G1 X128.197 Y116.672 E4.25906
G1 X126.815 Y118.19 E4.2848
G1 X125.991 Y118.929 E4.29868
G1 X124.472 Y120.041 E4.32229
G1 X123.5 Y120.608 E4.3364
G1 X121.943 Y121.322 E4.35788
G1 X120.461 Y121.819 E4.37749
G1 X119.503 Y122.05 E4.38984
G1 X117.568 Y122.319 E4.41434
G1 X116.225 Y122.359 E4.43119
G1 X115.373 Y122.319 E4.44189
G1 X113.458 Y122.044 E4.46615
G1 X112.591 Y121.835 E4.47733
G1 X110.743 Y121.202 E4.50183
G1 X109.883 Y120.808 E4.51369
G1 X108.107 Y119.768 E4.5395
G1 X107.326 Y119.195 E4.55165
G1 X105.856 Y117.861 E4.57654
G1 X104.84 Y116.715 E4.59575
G1 X104.209 Y115.855 E4.60912
G1 X103.302 Y114.312 E4.63157
G1 X102.629 Y112.815 E4.65215
G1 X102.181 Y111.461 E4.67004
G1 X101.95 Y110.503 E4.6824
G1 X101.681 Y108.569 E4.70688
G1 X101.641 Y107.227 E4.72372
G1 X101.681 Y106.373 E4.73444
G1 X101.956 Y104.458 E4.7587
G1 X102.165 Y103.591 E4.76989
G1 X102.798 Y101.748 E4.79432
G1 X103.208 Y100.855 E4.80665
G1 X104.231 Y99.108 E4.83203
G1 X104.803 Y98.328 E4.84416
G1 X106.18 Y96.815 E4.86982
G0 F15000 X106.447 Y97.113
G1 F1350 X107.3 Y96.349 E4.88418
G1 X108.599 Y95.396 E4.90438
G1 X110.05 Y94.556 E4.92541
G1 X110.91 Y94.162 E4.93727
G1 X112.662 Y93.562 E4.96049
G1 X113.81 Y93.296 E4.97527
G1 X115.403 Y93.084 E4.99542
G1 X116.756 Y93.041 E5.0124
G1 X117.608 Y93.081 E5.0231
G1 X119.448 Y93.345 E5.04641
G1 X120.315 Y93.554 E5.05759
G1 X121.969 Y94.12 E5.07951
G1 X123.085 Y94.633 E5.09492
G1 X124.678 Y95.582 E5.11817
G1 X125.827 Y96.449 E5.13622
G1 X126.644 Y97.194 E5.15008
G1 X127.781 Y98.457 E5.1714
G1 X128.58 Y99.555 E5.18842
G1 X129.39 Y100.944 E5.20859
G1 X129.852 Y101.946 E5.22243
G1 X130.445 Y103.679 E5.2454
G1 X130.691 Y104.733 E5.25897
G1 X130.919 Y106.442 E5.28059
G1 X130.959 Y107.754 E5.29705
G1 X130.919 Y108.608 E5.30777
G1 X130.655 Y110.449 E5.33109
G1 X130.446 Y111.316 E5.34228
G1 X129.839 Y113.083 E5.36571
G1 X129.428 Y113.978 E5.37806
G1 X128.446 Y115.655 E5.40243
G1 X127.874 Y116.435 E5.41456
G1 X126.548 Y117.892 E5.43926
G1 X125.724 Y118.631 E5.45314
G1 X124.27 Y119.695 E5.47574
G1 X123.298 Y120.262 E5.48985
G1 X121.816 Y120.943 E5.5103
G1 X120.367 Y121.43 E5.52947
G1 X119.409 Y121.661 E5.54183
G1 X117.556 Y121.919 E5.56529
G1 X116.244 Y121.959 E5.58175
G1 X115.392 Y121.919 E5.59245
G1 X113.552 Y121.655 E5.61576
G1 X112.685 Y121.446 E5.62694
G1 X110.91 Y120.838 E5.65047
G1 X110.05 Y120.444 E5.66233
G1 X108.344 Y119.445 E5.68713
G1 X107.563 Y118.872 E5.69927
G1 X106.155 Y117.595 E5.72311
G1 X105.163 Y116.478 E5.74185
G1 X104.532 Y115.618 E5.75522
G1 X103.667 Y114.148 E5.77661
G1 X102.994 Y112.651 E5.79719
G1 X102.57 Y111.367 E5.81415
G1 X102.339 Y110.409 E5.82651
G1 X102.081 Y108.557 E5.84996
G1 X102.041 Y107.246 E5.86641
G1 X102.081 Y106.392 E5.87713
G1 X102.345 Y104.552 E5.90044
G1 X102.554 Y103.685 E5.91162
G1 X103.162 Y101.915 E5.93509
G1 X103.572 Y101.022 E5.94741
G1 X104.554 Y99.345 E5.97178
G1 X105.126 Y98.565 E5.98391
G1 X106.447 Y97.113 E6.00853
G0 F15000 X106.714 Y97.411
G1 F1350 X107.537 Y96.672 E6.0224
G1 X108.836 Y95.719 E6.0426
G1 X110.217 Y94.92 E6.06261
G1 X111.077 Y94.526 E6.07448
G1 X112.753 Y93.952 E6.09669
G1 X113.863 Y93.693 E6.11099
G1 X115.456 Y93.481 E6.13114
G1 X116.737 Y93.441 E6.14721
G1 X117.589 Y93.481 E6.15791
G1 X119.354 Y93.734 E6.18027
G1 X120.221 Y93.943 E6.19145
G1 X121.839 Y94.498 E6.2129
G1 X122.881 Y94.977 E6.22728
G1 X124.437 Y95.901 E6.24998
G1 X125.557 Y96.745 E6.26756
G1 X126.374 Y97.49 E6.28143
G1 X127.458 Y98.693 E6.30174
G1 X128.234 Y99.757 E6.31825
G1 X129.044 Y101.146 E6.33841
G1 X129.488 Y102.113 E6.35176
G1 X130.055 Y103.77 E6.37372
G1 X130.301 Y104.824 E6.38729
G1 X130.519 Y106.454 E6.40792
G1 X130.559 Y107.735 E6.42399
G1 X130.519 Y108.589 E6.43471
G1 X130.266 Y110.355 E6.45708
G1 X130.057 Y111.222 E6.46827
G1 X129.475 Y112.916 E6.49073
G1 X129.064 Y113.811 E6.50308
G1 X128.123 Y115.418 E6.52643
G1 X127.551 Y116.198 E6.53856
G1 X126.281 Y117.594 E6.56223
G1 X125.457 Y118.333 E6.57611
G1 X124.068 Y119.349 E6.59769
G1 X123.096 Y119.916 E6.6118
G1 X121.688 Y120.564 E6.63124
G1 X120.273 Y121.041 E6.64996
G1 X119.315 Y121.272 E6.66232
G1 X117.544 Y121.519 E6.68475
G1 X116.263 Y121.559 E6.70082
G1 X115.411 Y121.519 E6.71151
G1 X113.646 Y121.266 E6.73387
G1 X112.779 Y121.057 E6.74506
G1 X111.077 Y120.474 E6.76762
G1 X110.217 Y120.08 E6.77948
G1 X108.581 Y119.122 E6.80326
G1 X107.8 Y118.549 E6.8154
G1 X106.424 Y117.299 E6.83872
G1 X105.486 Y116.241 E6.85645
G1 X104.855 Y115.381 E6.86982
G1 X104.032 Y113.984 E6.89016
G1 X103.374 Y112.525 E6.91023
G1 X102.959 Y111.273 E6.92677
G1 X102.728 Y110.315 E6.93913
G1 X102.481 Y108.544 E6.96155
G1 X102.441 Y107.265 E6.9776
G1 X102.481 Y106.411 E6.98832
G1 X102.734 Y104.646 E7.01068
G1 X102.943 Y103.779 E7.02186
G1 X103.526 Y102.082 E7.04436
G1 X103.936 Y101.189 E7.05669
G1 X104.877 Y99.582 E7.08004
G1 X105.449 Y98.802 E7.09217
G1 X106.714 Y97.411 E7.11575
G0 F15000 X106.982 Y97.708
G1 F1350 X107.774 Y96.995 E7.12911
G1 X109.073 Y96.042 E7.14932
G1 X110.384 Y95.284 E7.16831
G1 X111.244 Y94.89 E7.18017
G1 X112.844 Y94.342 E7.20138
G1 X113.954 Y94.083 E7.21567
G1 X115.469 Y93.881 E7.23484
G1 X116.718 Y93.841 E7.25051
G1 X117.57 Y93.881 E7.26121
G1 X119.26 Y94.123 E7.28261
G1 X120.127 Y94.332 E7.2938
G1 X121.709 Y94.876 E7.31478
G1 X122.677 Y95.321 E7.32814
G1 X124.197 Y96.221 E7.35029
G1 X125.287 Y97.041 E7.3674
G1 X126.104 Y97.786 E7.38126
G1 X127.135 Y98.929 E7.40056
G1 X127.888 Y99.959 E7.41656
G1 X128.698 Y101.348 E7.43673
G1 X129.11 Y102.243 E7.44908
G1 X129.665 Y103.861 E7.47053
G1 X129.911 Y104.915 E7.48411
G1 X130.119 Y106.467 E7.50374
G1 X130.159 Y107.716 E7.51942
G1 X130.119 Y108.57 E7.53014
G1 X129.877 Y110.261 E7.55156
G1 X129.668 Y111.128 E7.56274
G1 X129.111 Y112.749 E7.58424
G1 X128.7 Y113.644 E7.59659
G1 X127.8 Y115.181 E7.61892
G1 X127.228 Y115.961 E7.63105
G1 X126.014 Y117.296 E7.65368
G1 X125.19 Y118.035 E7.66756
G1 X123.866 Y119.003 E7.68813
G1 X122.894 Y119.57 E7.70224
G1 X121.521 Y120.2 E7.72118
G1 X120.179 Y120.652 E7.73894
G1 X119.221 Y120.883 E7.7513
G1 X117.531 Y121.119 E7.7727
G1 X116.282 Y121.159 E7.78837
G1 X115.43 Y121.119 E7.79907
G1 X113.74 Y120.877 E7.82048
G1 X112.873 Y120.668 E7.83166
G1 X111.244 Y120.11 E7.85325
G1 X110.384 Y119.716 E7.86512
G1 X108.818 Y118.799 E7.88787
G1 X108.037 Y118.226 E7.90002
G1 X106.723 Y117.033 E7.92228
G1 X105.809 Y116.004 E7.93954
G1 X105.178 Y115.144 E7.95291
G1 X104.396 Y113.819 E7.97221
G1 X103.754 Y112.399 E7.99175
G1 X103.348 Y111.179 E8.00787
G1 X103.117 Y110.221 E8.02023
G1 X102.881 Y108.531 E8.04163
G1 X102.841 Y107.284 E8.05728
G1 X102.881 Y106.43 E8.068
G1 X103.123 Y104.74 E8.08941
G1 X103.332 Y103.873 E8.10059
G1 X103.89 Y102.249 E8.12213
G1 X104.3 Y101.356 E8.13445
G1 X105.2 Y99.819 E8.15678
G1 X105.772 Y99.039 E8.16891
G1 X106.982 Y97.708 E8.19147
G0 F15000 X107.278 Y97.977
G1 F1350 X108.011 Y97.318 E8.20383
G1 X109.31 Y96.365 E8.22404
G1 X110.551 Y95.648 E8.24201
G1 X111.411 Y95.254 E8.25387
G1 X112.935 Y94.732 E8.27407
G1 X114.045 Y94.473 E8.28837
G1 X115.482 Y94.281 E8.30655
G1 X116.699 Y94.241 E8.32182
G1 X117.551 Y94.281 E8.33251
G1 X119.166 Y94.512 E8.35297
G1 X120.033 Y94.721 E8.36416
G1 X121.543 Y95.24 E8.38418
G1 X122.474 Y95.666 E8.39702
G1 X123.957 Y96.541 E8.41861
G1 X125.017 Y97.337 E8.43524
G1 X125.834 Y98.082 E8.4491
G1 X126.812 Y99.166 E8.46741
G1 X127.542 Y100.161 E8.48289
G1 X128.352 Y101.55 E8.50305
G1 X128.746 Y102.41 E8.51491
G1 X129.275 Y103.952 E8.53536
G1 X129.521 Y105.006 E8.54893
G1 X129.719 Y106.48 E8.56758
G1 X129.759 Y107.697 E8.58285
G1 X129.719 Y108.551 E8.59357
G1 X129.488 Y110.167 E8.61404
G1 X129.279 Y111.034 E8.62522
G1 X128.747 Y112.582 E8.64575
G1 X128.336 Y113.477 E8.6581
G1 X127.477 Y114.944 E8.67942
G1 X126.905 Y115.724 E8.69155
G1 X125.747 Y116.998 E8.71314
G1 X124.923 Y117.737 E8.72702
G1 X123.664 Y118.657 E8.74658
G1 X122.692 Y119.224 E8.76069
G1 X121.393 Y119.821 E8.77861
G1 X120.085 Y120.263 E8.79593
G1 X119.127 Y120.494 E8.80829
G1 X117.518 Y120.719 E8.82866
G1 X116.301 Y120.759 E8.84393
G1 X115.449 Y120.719 E8.85463
G1 X113.834 Y120.488 E8.87509
G1 X112.967 Y120.279 E8.88627
G1 X111.411 Y119.746 E8.9069
G1 X110.551 Y119.352 E8.91876
G1 X109.055 Y118.476 E8.9405
G1 X108.274 Y117.903 E8.95265
G1 X107.022 Y116.767 E8.97385
G1 X106.132 Y115.767 E8.99063
G1 X105.501 Y114.907 E9.00401
G1 X104.76 Y113.654 E9.02226
G1 X104.133 Y112.272 E9.0413
G1 X103.737 Y111.085 E9.05699
G1 X103.506 Y110.127 E9.06935
G1 X103.281 Y108.518 E9.08972
