;START_OF_HEADER
;HEADER_VERSION:0.1
;FLAVOR:Griffin
;GENERATOR.NAME:Cura_SteamEngine
;GENERATOR.VERSION:5.6.0
;GENERATOR.BUILD_DATE:2023-11-28
;TARGET_MACHINE.NAME:Ultimaker 3 Extended
;EXTRUDER_TRAIN.0.INITIAL_TEMPERATURE:200
;EXTRUDER_TRAIN.0.MATERIAL.VOLUME_USED:1667
;EXTRUDER_TRAIN.0.MATERIAL.GUID:506c9f0d-e3aa-4bd4-b2d2-23e2425b1aa9
;EXTRUDER_TRAIN.0.NOZZLE.DIAMETER:0.4
;EXTRUDER_TRAIN.0.NOZZLE.NAME:AA 0.4
;BUILD_PLATE.INITIAL_TEMPERATURE:60
;PRINT.TIME:1083
;PRINT.GROUPS:1
;PRINT.SIZE.MIN.X:9
;PRINT.SIZE.MIN.Y:6
;PRINT.SIZE.MIN.Z:0.2
;PRINT.SIZE.MAX.X:132.261
;PRINT.SIZE.MAX.Y:123.261
;PRINT.SIZE.MAX.Z:9.65
;SLICE_UUID:781d4cf1-c635-4c94-9d2c-afe7deb975c6
;END_OF_HEADER
;Generated with Cura_SteamEngine 5.6.0
T0
M82 ;absolute extrusion mode

G92 E0
M190 S60
M109 S200
G0 F15000 X9 Y6 Z2
G280
G1 F1500 E-6.5
;LAYER_COUNT:64
;LAYER:0
M106 S255
M204 S1000
M205 X20 Y20
G1 F600 Z2.2
G0 F15000 X105.361 Y96.355 Z2.2
;TYPE:SKIRT
G1 F600 Z0.2
G1 F1500 E0
G1 F1350 X107.702 Y94.429 E0.03802
G1 X110.493 Y92.931 E0.07774
G1 X113.469 Y92.042 E0.11669
G1 X116.524 Y91.739 E0.15519
G1 X119.606 Y92.042 E0.19402
G1 X122.492 Y92.924 E0.23187
G1 X125.31 Y94.44 E0.27199
G1 X127.66 Y96.38 E0.31021
G1 X129.571 Y98.702 E0.34792
G1 X131.071 Y101.495 E0.38768
G1 X131.958 Y104.465 E0.42655
G1 X132.261 Y107.521 E0.46506
G1 X131.958 Y110.6 E0.50386
G1 X131.066 Y113.523 E0.54218
G1 X129.583 Y116.28 E0.58144
G1 X127.614 Y118.666 E0.62023
G1 X125.298 Y120.571 E0.65784
G1 X122.507 Y122.069 E0.69756
G1 X119.531 Y122.958 E0.73651
G1 X116.476 Y123.261 E0.77501
G1 X113.394 Y122.958 E0.81385
G1 X110.497 Y122.072 E0.85184
G1 X107.688 Y120.561 E0.89184
G1 X105.339 Y118.619 E0.93006
G1 X103.428 Y116.296 E0.96778
G1 X101.931 Y113.507 E1.00747
G1 X101.042 Y110.531 E1.04642
G1 X100.739 Y107.48 E1.08487
G1 X101.042 Y104.397 E1.12372
G1 X101.925 Y101.505 E1.16164
G1 X103.449 Y98.673 E1.20197
G1 X105.361 Y96.355 E1.23965
G0 F15000 X105.648 Y96.637
G1 F1350 X107.928 Y94.761 E1.27668
G1 X110.646 Y93.302 E1.31536
G1 X113.545 Y92.436 E1.35331
G1 X116.524 Y92.141 E1.39085
G1 X119.524 Y92.436 E1.42865
G1 X122.342 Y93.297 E1.4656
G1 X125.085 Y94.772 E1.50466
G1 X127.375 Y96.663 E1.5419
G1 X129.239 Y98.928 E1.57869
G1 X130.7 Y101.648 E1.6174
G1 X131.564 Y104.541 E1.65527
G1 X131.859 Y107.521 E1.69282
G1 X131.564 Y110.518 E1.73059
G1 X130.693 Y113.373 E1.76802
G1 X129.251 Y116.055 E1.8062
G1 X127.331 Y118.381 E1.84403
G1 X125.072 Y120.239 E1.88071
G1 X122.354 Y121.698 E1.91939
G1 X119.455 Y122.564 E1.95733
G1 X116.476 Y122.859 E1.99487
G1 X113.476 Y122.564 E2.03268
G1 X110.65 Y121.7 E2.06973
G1 X107.912 Y120.227 E2.10872
G1 X105.624 Y118.336 E2.14595
G1 X103.76 Y116.07 E2.18274
G1 X102.302 Y113.354 E2.2214
G1 X101.436 Y110.455 E2.25934
G1 X101.141 Y107.48 E2.29683
G1 X101.436 Y104.479 E2.33465
G1 X102.297 Y101.658 E2.37163
G1 X103.781 Y98.9 E2.41091
G1 X105.648 Y96.637 E2.4477
G0 F15000 X105.935 Y96.919
G1 F1350 X108.154 Y95.093 E2.48374
G1 X110.799 Y93.673 E2.52138
G1 X113.621 Y92.83 E2.55832
G1 X116.524 Y92.543 E2.5949
G1 X119.442 Y92.83 E2.63167
G1 X122.192 Y93.67 E2.66773
G1 X124.856 Y95.103 E2.70566
G1 X127.093 Y96.949 E2.74203
G1 X128.907 Y99.154 E2.77784
G1 X130.329 Y101.801 E2.81552
G1 X131.17 Y104.617 E2.85238
G1 X131.457 Y107.521 E2.88897
G1 X131.17 Y110.436 E2.9257
G1 X130.32 Y113.223 E2.96224
G1 X128.919 Y115.83 E2.99936
G1 X127.048 Y118.096 E3.03621
G1 X124.846 Y119.907 E3.07196
G1 X122.201 Y121.327 E3.10961
G1 X119.379 Y122.17 E3.14654
G1 X116.476 Y122.457 E3.18312
G1 X113.558 Y122.17 E3.21989
G1 X110.8 Y121.327 E3.25606
G1 X108.138 Y119.895 E3.29397
G1 X105.909 Y118.053 E3.33023
G1 X104.092 Y115.844 E3.3661
G1 X102.673 Y113.201 E3.40372
G1 X101.83 Y110.379 E3.44065
G1 X101.543 Y107.48 E3.47718
G1 X101.83 Y104.561 E3.51396
G1 X102.669 Y101.811 E3.55002
G1 X104.113 Y99.127 E3.58824
G1 X105.935 Y96.919 E3.62414
G0 F15000 X106.218 Y97.204
G1 F1350 X108.38 Y95.425 E3.65925
G1 X110.952 Y94.044 E3.69586
G1 X113.697 Y93.224 E3.73179
G1 X116.524 Y92.945 E3.76741
G1 X119.36 Y93.224 E3.80315
G1 X122.042 Y94.043 E3.83831
G1 X124.631 Y95.435 E3.87517
G1 X126.808 Y97.232 E3.91057
G1 X128.575 Y99.38 E3.94545
G1 X129.958 Y101.954 E3.9821
G1 X130.776 Y104.693 E4.01794
G1 X131.055 Y107.521 E4.05358
G1 X130.776 Y110.354 E4.08928
G1 X129.947 Y113.073 E4.12493
G1 X128.587 Y115.605 E4.16097
G1 X126.765 Y117.811 E4.19685
G1 X124.62 Y119.575 E4.23168
G1 X122.048 Y120.956 E4.26828
G1 X119.303 Y121.776 E4.30421
G1 X116.476 Y122.055 E4.33983
G1 X113.64 Y121.776 E4.37557
G1 X110.953 Y120.955 E4.4108
G1 X108.362 Y119.561 E4.4477
G1 X106.194 Y117.77 E4.48297
G1 X104.424 Y115.618 E4.51791
G1 X103.044 Y113.048 E4.55449
G1 X102.224 Y110.303 E4.59042
G1 X101.945 Y107.48 E4.62599
G1 X102.224 Y104.643 E4.66174
G1 X103.042 Y101.961 E4.6969
G1 X104.445 Y99.352 E4.73405
G1 X106.218 Y97.204 E4.76898
G0 F15000 X106.501 Y97.489
G1 F1350 X108.606 Y95.757 E4.80316
G1 X111.105 Y94.415 E4.83873
G1 X113.773 Y93.618 E4.87365
G1 X116.524 Y93.347 E4.90832
G1 X119.278 Y93.618 E4.94302
G1 X121.892 Y94.416 E4.97729
G1 X124.406 Y95.767 E5.01308
G1 X126.523 Y97.515 E5.04751
G1 X128.243 Y99.606 E5.08147
G1 X129.587 Y102.107 E5.11707
G1 X130.382 Y104.769 E5.15191
G1 X130.653 Y107.521 E5.18659
G1 X130.382 Y110.272 E5.22125
G1 X129.574 Y112.923 E5.25601
G1 X128.255 Y115.38 E5.29098
G1 X126.482 Y117.526 E5.32589
G1 X124.394 Y119.243 E5.35979
G1 X121.895 Y120.585 E5.39536
G1 X119.227 Y121.382 E5.43028
G1 X116.476 Y121.653 E5.46494
G1 X113.722 Y121.382 E5.49965
G1 X111.106 Y120.583 E5.53395
G1 X108.586 Y119.227 E5.56983
G1 X106.479 Y117.487 E5.6041
G1 X104.756 Y115.392 E5.63812
G1 X103.415 Y112.895 E5.67366
G1 X102.618 Y110.227 E5.70858
G1 X102.347 Y107.48 E5.7432
G1 X102.618 Y104.725 E5.77791
G1 X103.415 Y102.111 E5.81218
G1 X104.777 Y99.577 E5.84826
G1 X106.501 Y97.489 E5.88221
G0 F15000 X106.787 Y97.771
G1 F1350 X108.832 Y96.089 E5.91542
G1 X111.258 Y94.786 E5.94995
G1 X113.849 Y94.012 E5.98386
G1 X116.524 Y93.749 E6.01757
G1 X119.196 Y94.012 E6.05124
G1 X121.742 Y94.789 E6.08462
G1 X124.181 Y96.099 E6.11934
G1 X126.238 Y97.798 E6.1528
G1 X127.911 Y99.832 E6.18582
G1 X129.216 Y102.26 E6.22039
G1 X129.988 Y104.845 E6.25422
G1 X130.251 Y107.521 E6.28794
G1 X129.988 Y110.19 E6.32158
G1 X129.201 Y112.773 E6.35544
G1 X127.923 Y115.155 E6.38934
G1 X126.199 Y117.241 E6.42327
G1 X124.168 Y118.911 E6.45625
G1 X121.742 Y120.214 E6.49078
G1 X119.151 Y120.988 E6.52469
G1 X116.476 Y121.251 E6.5584
G1 X113.804 Y120.988 E6.59207
G1 X111.259 Y120.211 E6.62544
G1 X108.81 Y118.893 E6.66031
G1 X106.764 Y117.204 E6.69359
G1 X105.088 Y115.166 E6.72667
G1 X103.786 Y112.742 E6.76118
G1 X103.012 Y110.151 E6.79509
G1 X102.749 Y107.48 E6.82875
G1 X103.012 Y104.807 E6.86243
G1 X103.788 Y102.261 E6.89581
G1 X105.108 Y99.806 E6.93076
G1 X106.787 Y97.771 E6.96385
G0 F15000 X107.074 Y98.053
G1 F1350 X109.058 Y96.421 E6.99606
G1 X111.411 Y95.157 E7.02956
G1 X113.925 Y94.406 E7.06246
G1 X116.524 Y94.151 E7.09521
G1 X119.114 Y94.406 E7.12785
G1 X121.592 Y95.162 E7.16034
G1 X123.956 Y96.431 E7.19398
G1 X125.953 Y98.081 E7.22647
G1 X127.579 Y100.058 E7.25857
G1 X128.844 Y102.412 E7.29208
G1 X129.594 Y104.922 E7.32493
G1 X129.849 Y107.521 E7.35768
G1 X129.594 Y110.108 E7.39028
G1 X128.829 Y112.619 E7.4232
G1 X127.588 Y114.933 E7.45613
G1 X125.916 Y116.956 E7.48904
G1 X123.942 Y118.579 E7.52109
G1 X121.589 Y119.843 E7.55458
G1 X119.075 Y120.594 E7.58749
G1 X116.476 Y120.849 E7.62023
G1 X113.886 Y120.594 E7.65287
G1 X111.412 Y119.839 E7.68531
G1 X109.037 Y118.561 E7.71913
G1 X107.046 Y116.918 E7.7515
G1 X105.42 Y114.94 E7.78361
G1 X104.157 Y112.589 E7.81708
G1 X103.406 Y110.075 E7.84998
G1 X103.151 Y107.48 E7.88268
G1 X103.406 Y104.889 E7.91533
G1 X104.161 Y102.411 E7.94782
G1 X105.439 Y100.035 E7.98165
G1 X107.074 Y98.053 E8.01387
G0 F15000 X107.361 Y98.335
G1 F1350 X109.284 Y96.753 E8.0451
G1 X111.564 Y95.528 E8.07755
G1 X114.001 Y94.8 E8.10945
G1 X116.524 Y94.553 E8.14124
G1 X119.032 Y94.8 E8.17284
G1 X121.442 Y95.535 E8.20444
G1 X123.731 Y96.763 E8.23701
G1 X125.668 Y98.364 E8.26853
G1 X127.247 Y100.284 E8.2997
G1 X128.472 Y102.564 E8.33216
G1 X129.2 Y104.999 E8.36403
G1 X129.447 Y107.521 E8.39581
G1 X129.2 Y110.026 E8.42738
G1 X128.456 Y112.469 E8.4594
G1 X127.255 Y114.708 E8.49126
G1 X125.633 Y116.671 E8.5232
G1 X123.716 Y118.247 E8.55432
G1 X121.436 Y119.472 E8.58677
G1 X118.999 Y120.2 E8.61867
G1 X116.476 Y120.447 E8.65046
G1 X113.968 Y120.2 E8.68206
G1 X111.562 Y119.466 E8.71361
G1 X109.262 Y118.229 E8.74636
G1 X107.331 Y116.635 E8.77776
G1 X105.752 Y114.714 E8.80894
G1 X104.528 Y112.436 E8.84137
G1 X103.8 Y109.999 E8.87327
G1 X103.553 Y107.48 E8.90501
G1 X103.8 Y104.97 E8.93664
G1 X104.533 Y102.563 E8.96819
G1 X105.771 Y100.262 E9.00096
G1 X107.361 Y98.335 E9.03229
G0 F15000 X107.644 Y98.62
G1 F1350 X109.51 Y97.085 E9.06259
G1 X111.716 Y95.9 E9.09399
G1 X114.078 Y95.194 E9.1249
G1 X116.524 Y94.955 E9.15572
G1 X118.95 Y95.194 E9.18629
G1 X121.288 Y95.907 E9.21695
G1 X123.509 Y97.098 E9.24855
G1 X125.383 Y98.647 E9.27904
G1 X126.915 Y100.51 E9.30929
G1 X128.1 Y102.716 E9.34069
G1 X128.806 Y105.076 E9.37158
G1 X129.045 Y107.521 E9.40239
G1 X128.806 Y109.944 E9.43292
G1 X128.084 Y112.315 E9.464
G1 X126.92 Y114.486 E9.49489
G1 X125.35 Y116.386 E9.5258
G1 X123.49 Y117.915 E9.556
G1 X121.284 Y119.1 E9.5874
G1 X118.922 Y119.806 E9.61832
G1 X116.476 Y120.045 E9.64914
G1 X114.05 Y119.806 E9.67971
G1 X111.712 Y119.093 E9.71036
G1 X109.487 Y117.897 E9.74204
G1 X107.616 Y116.352 E9.77246
G1 X106.084 Y114.488 E9.80272
G1 X104.9 Y112.284 E9.8341
G1 X104.194 Y109.922 E9.86501
G1 X103.955 Y107.48 E9.89578
G1 X104.194 Y105.051 E9.92639
G1 X104.906 Y102.713 E9.95704
G1 X106.103 Y100.487 E9.98873
G1 X107.644 Y98.62 E10.01909
G0 F15000 X107.927 Y98.905
G1 F1350 X109.736 Y97.417 E10.04846
G1 X111.868 Y96.272 E10.07881
G1 X114.155 Y95.588 E10.10875
G1 X116.524 Y95.357 E10.1386
G1 X118.868 Y95.588 E10.16813
G1 X121.138 Y96.28 E10.19789
G1 X123.284 Y97.431 E10.22843
G1 X125.098 Y98.93 E10.25794
G1 X126.583 Y100.736 E10.28726
G1 X127.728 Y102.868 E10.31761
G1 X128.412 Y105.153 E10.34752
G1 X128.643 Y107.521 E10.37736
G1 X128.412 Y109.864 E10.40688
G1 X127.713 Y112.16 E10.43698
G1 X126.585 Y114.264 E10.46692
G1 X125.067 Y116.101 E10.4968
G1 X123.264 Y117.583 E10.52607
G1 X121.132 Y118.728 E10.55642
G1 X118.845 Y119.412 E10.58635
G1 X116.476 Y119.643 E10.6162
G1 X114.132 Y119.412 E10.64574
G1 X111.862 Y118.72 E10.6755
G1 X109.716 Y117.566 E10.70606
G1 X107.898 Y116.066 E10.73561
G1 X106.416 Y114.262 E10.76489
G1 X105.272 Y112.132 E10.79521
G1 X104.588 Y109.845 E10.82514
G1 X104.357 Y107.48 E10.85494
G1 X104.588 Y105.132 E10.88453
G1 X105.279 Y102.863 E10.91427
G1 X106.435 Y100.712 E10.9449
G1 X107.927 Y98.905 E10.97428
G0 F15000 X108.21 Y99.19
G1 F1350 X109.962 Y97.749 E11.00273
G1 X112.02 Y96.644 E11.03202
G1 X114.232 Y95.982 E11.06098
G1 X116.524 Y95.759 E11.08986
G1 X118.786 Y95.982 E11.11836
G1 X120.988 Y96.653 E11.14723
G1 X123.059 Y97.764 E11.1767
G1 X124.813 Y99.213 E11.20523
G1 X126.251 Y100.962 E11.23363
G1 X127.356 Y103.02 E11.26292
G1 X128.018 Y105.23 E11.29185
G1 X128.241 Y107.521 E11.32072
G1 X128.018 Y109.784 E11.34923
G1 X127.342 Y112.005 E11.37835
G1 X126.25 Y114.042 E11.40733
G1 X124.784 Y115.816 E11.43619
G1 X123.038 Y117.251 E11.46453
G1 X120.98 Y118.356 E11.49382
G1 X118.768 Y119.018 E11.52278
G1 X116.476 Y119.241 E11.55166
G1 X114.214 Y119.018 E11.58016
G1 X112.012 Y118.347 E11.60903
G1 X109.941 Y117.234 E11.63851
G1 X108.183 Y115.783 E11.6671
G1 X106.748 Y114.036 E11.69545
G1 X105.644 Y111.98 E11.72471
G1 X104.982 Y109.768 E11.75367
G1 X104.759 Y107.48 E11.7825
G1 X104.982 Y105.213 E11.81106
G1 X105.652 Y103.013 E11.8399
G1 X106.767 Y100.937 E11.86946
G1 X108.21 Y99.19 E11.89787
G0 F15000 X108.496 Y99.472
G1 F1350 X110.188 Y98.081 E11.92534
G1 X112.172 Y97.016 E11.95358
G1 X114.309 Y96.376 E11.98155
G1 X116.524 Y96.161 E12.00946
G1 X118.704 Y96.376 E12.03693
G1 X120.838 Y97.026 E12.0649
G1 X122.834 Y98.097 E12.09331
G1 X124.528 Y99.496 E12.12086
G1 X125.919 Y101.188 E12.14833
G1 X126.984 Y103.172 E12.17657
G1 X127.624 Y105.307 E12.20452
G1 X127.839 Y107.521 E12.23241
G1 X127.624 Y109.704 E12.25992
G1 X126.971 Y111.85 E12.28805
G1 X125.915 Y113.82 E12.31608
G1 X124.501 Y115.531 E12.34392
G1 X122.812 Y116.919 E12.37133
G1 X120.828 Y117.984 E12.39957
G1 X118.691 Y118.624 E12.42755
G1 X116.476 Y118.839 E12.45545
G1 X114.296 Y118.624 E12.48292
G1 X112.162 Y117.974 E12.5109
G1 X110.166 Y116.902 E12.53931
G1 X108.468 Y115.5 E12.56692
G1 X107.08 Y113.81 E12.59435
G1 X106.016 Y111.828 E12.62256
G1 X105.376 Y109.691 E12.65053
G1 X105.161 Y107.48 E12.67839
G1 X105.376 Y105.294 E12.70594
G1 X106.025 Y103.163 E12.73387
G1 X107.098 Y101.166 E12.7623
G1 X108.496 Y99.472 E12.78985
G0 F15000 X108.779 Y99.757
G1 F1350 X110.414 Y98.413 E12.81639
G1 X112.324 Y97.388 E12.84357
G1 X114.386 Y96.77 E12.87056
G1 X116.524 Y96.563 E12.8975
G1 X118.624 Y96.77 E12.92396
G1 X120.687 Y97.398 E12.95101
G1 X122.609 Y98.43 E12.97836
G1 X124.243 Y99.779 E13.00494
G1 X125.587 Y101.414 E13.03148
G1 X126.612 Y103.324 E13.05866
G1 X127.23 Y105.384 E13.08563
G1 X127.437 Y107.521 E13.11256
G1 X127.23 Y109.624 E13.13906
G1 X126.6 Y111.695 E13.1662
G1 X125.58 Y113.598 E13.19328
G1 X124.218 Y115.246 E13.22009
G1 X122.586 Y116.587 E13.24658
G1 X120.676 Y117.612 E13.27376
G1 X118.614 Y118.23 E13.30076
G1 X116.476 Y118.437 E13.32769
G1 X114.376 Y118.23 E13.35415
G1 X112.313 Y117.602 E13.3812
G1 X110.391 Y116.57 E13.40855
G1 X108.753 Y115.217 E13.4352
G1 X107.412 Y113.585 E13.46169
G1 X106.388 Y111.676 E13.48885
G1 X105.77 Y109.614 E13.51585
G1 X105.563 Y107.48 E13.54273
G1 X105.77 Y105.375 E13.56926
G1 X106.398 Y103.313 E13.59629
G1 X107.43 Y101.391 E13.62365
G1 X108.779 Y99.757 E13.65022
G0 F15000 X109.062 Y100.042
G1 F1350 X110.636 Y98.748 E13.67577
G1 X112.48 Y97.759 E13.70201
G1 X114.464 Y97.164 E13.72799
G1 X116.523 Y96.965 E13.75393
G1 X118.544 Y97.164 E13.77939
G1 X120.536 Y97.77 E13.8055
G1 X122.384 Y98.762 E13.83181
G1 X123.958 Y100.062 E13.85741
G1 X125.252 Y101.636 E13.88296
G1 X126.241 Y103.48 E13.9092
G1 X126.836 Y105.462 E13.93515
G1 X127.035 Y107.52 E13.96108
G1 X126.836 Y109.544 E13.98658
G1 X126.228 Y111.544 E14.0128
G1 X125.247 Y113.373 E14.03883
G1 X123.935 Y114.961 E14.06466
G1 X122.364 Y116.252 E14.09016
G1 X120.52 Y117.241 E14.1164
G1 X118.536 Y117.836 E14.14237
G1 X116.477 Y118.035 E14.16831
G1 X114.456 Y117.836 E14.19378
G1 X112.464 Y117.23 E14.21989
G1 X110.62 Y116.239 E14.24614
G1 X109.035 Y114.931 E14.27191
G1 X107.747 Y113.363 E14.29736
G1 X106.759 Y111.52 E14.32358
G1 X106.164 Y109.537 E14.34955
G1 X105.965 Y107.48 E14.37546
G1 X106.164 Y105.455 E14.40098
G1 X106.77 Y103.464 E14.42708
G1 X107.762 Y101.616 E14.45338
G1 X109.062 Y100.042 E14.47898
G0 F15000 X109.348 Y100.324
G1 F1350 X110.858 Y99.083 E14.50349
G1 X112.636 Y98.13 E14.52879
G1 X114.542 Y97.558 E14.55374
G1 X116.522 Y97.367 E14.57869
G1 X118.464 Y97.558 E14.60316
G1 X120.385 Y98.142 E14.62834
G1 X122.155 Y99.093 E14.65354
G1 X123.676 Y100.348 E14.67826
G1 X124.917 Y101.858 E14.70277
G1 X125.87 Y103.636 E14.72807
G1 X126.442 Y105.54 E14.753
G1 X126.633 Y107.519 E14.77794
G1 X126.442 Y109.464 E14.80244
G1 X125.857 Y111.389 E14.82767
G1 X124.912 Y113.151 E14.85275
G1 X123.652 Y114.676 E14.87756
G1 X122.142 Y115.917 E14.90207
G1 X120.364 Y116.87 E14.92736
G1 X118.458 Y117.442 E14.95232
G1 X116.478 Y117.633 E14.97726
G1 X114.536 Y117.442 E15.00173
G1 X112.615 Y116.858 E15.02691
G1 X110.845 Y115.907 E15.05211
G1 X109.32 Y114.648 E15.07691
G1 X108.082 Y113.141 E15.10137
G1 X107.13 Y111.364 E15.12665
G1 X106.558 Y109.459 E15.15159
G1 X106.367 Y107.481 E15.17651
G1 X106.558 Y105.535 E15.20103
G1 X107.142 Y103.615 E15.2262
G1 X108.093 Y101.845 E15.2514
G1 X109.348 Y100.324 E15.27613
G0 F15000 X109.631 Y100.609
G1 F1350 X111.08 Y99.418 E15.29965
G1 X112.792 Y98.501 E15.324
G1 X114.62 Y97.952 E15.34794
G1 X116.521 Y97.769 E15.37189
G1 X118.384 Y97.952 E15.39536
G1 X120.234 Y98.514 E15.41961
G1 X121.93 Y99.425 E15.44375
G1 X123.391 Y100.631 E15.46751
G1 X124.582 Y102.08 E15.49103
